!!!!SEGMENT: pl-sa--25-a-i-25--002_luna-georgius--vesperae-confitebor.krn
!!!cenid: 17xx:484
!!!COM: Luna, Georgius
!!!COM-rismID: pe41010079
!!!CDT:
!!!CNT:
!!!OPR: Vesperae
!!!OTL: Confitebor
!!!OMV: 002
!!!PDT:
!!!AGN: Sacred; Vespers
!!!SMS-siglum: PL-SA
!!!SMS-shelfmark: 25/A I 25
!!!SMS-shelfwork: 001-002 M
!!!SMS-variant:
!!!SMS-altvar:
!!!NIFC-rismSourceID: 1001068245
!!!NIFC-rismChildID: 1001068245
!!!NIFC-islandoraID: none
!!!URL-pdf-islandora:
!!!URL-scan: https://bc.bdsandomierz.pl/dlibra/publication/1258/edition/1226/content @EN{Scan in the Sandomierz Diocese Digital Library} @PL{Skany w portalu Cyfrowa Biblioteka Diecezjalna w Sandomierzu}
!!!ONB-nifc: UWAGA: części Vesperae: Dixit Dominus, Confitebor, Beatus vir, Laudate pueri, Laudate Dominum, Magnificat
!!!AIN: 4 empty 1 tenor 2 violn 1 vox
!!!key:
**kern	**kern	**dynam	**kern	**kern	**text	**kern	**text	**kern	**text	**kern	**kern
*part8	*part7	*part7	*part6	*part5	*part5	*part4	*part4	*part3	*part3	*part2	*part1
*staff8	*staff7	*	*staff6	*staff5	*staff5	*staff4	*staff4	*staff3	*staff3	*staff2	*staff1
*group4	*group3	*	*group3	*group2	*	*group2	*	*group2	*	*group1	*group1
*Iempty	*Ivioln	*	*Ivioln	*Iempty	*	*Itenor	*	*Ivox	*	*Iempty	*Iempty
*I"Fundamento	*I"Violino 2do	*	*I"Violino 1mo	*I"Baſso	*	*I"Tenore	*	*I"Canto	*	*I"Clarino 2do ex D	*I"Clarino 1mo ex D
*I'bc	*I'vl 2	*	*I'vl 1	*I'B	*	*I'T	*	*I'S	*	*I'clno 2 in D	*I'clno 1 in D
*clefF4	*clefG2	*	*clefG2	*clefF4	*	*clefC4	*	*clefC1	*	*clefG2	*clefG2
*	*	*	*	*	*	*	*	*	*	*ITrd-1c-2	*ITrd-1c-2
*k[f#c#]	*k[f#c#]	*	*k[f#c#]	*k[f#c#]	*	*k[f#c#]	*	*k[f#c#]	*	*k[f#c#]	*k[f#c#]
*D:	*D:	*	*D:	*D:	*	*D:	*	*D:	*	*D:	*D:
*M3/4	*M3/4	*	*M3/4	*M3/4	*	*M3/4	*	*M3/4	*	*M3/4	*M3/4
=1	=1	=1	=1	=1	=1	=1	=1	=1	=1	=1	=1
*2\right	*2\right	*	*2\right	*2\right	*	*2\right	*	*2\right	*	*2\right	*2\right
!LO:TX:a:t=Confitebor	!LO:TX:a:t=Confitebor	!	!LO:TX:a:t=Confitebor	!	!	!LO:TX:a:t=P:problem=kolejność krzyżyków&colon;c#, F#	!	!LO:TX:a:t=P:problem=kolejność krzyżyków&colon;cc#, f#	!	!	!LO:TX:a:t=All(egr)o
!LO:TX:a:t=all(egr)o	!LO:TX:a:t=all(egr)o	!	!LO:TX:a:t=All(egr)o	!LO:TX:a:t=all(egr)o	!	!	!	!LO:TX:a:t=all(egr)o	!	!LO:TX:b:t=Confitebor	!LO:TX:a:t=Confitebor
8D\L	8dd\L	.	8dd\L	4D\	Con-	4A\	Con-	4ff#\	Con-	4ff#\	4aa\
8D\	16ee\L	.	16ee\L	.	.	.	.	.	.	.	.
.	16ff#\JJ	.	16ff#\JJ	.	.	.	.	.	.	.	.
!	!	!	!	!	!	!LO:TX:a:t=P:problem=laska nieczytelna	!	!	!	!	!
8D\	16gg\LL	.	16gg\LL	2D\	-fi-	2A\	-fi-	2ff#\	-fi-	8r	8r
.	16aa\	.	16aa\	.	.	.	.	.	.	.	.
8D\	16bb\	.	16bb\	.	.	.	.	.	.	8ff#\L	8aa\L
.	16ccc#\JJ	.	16ccc#\JJ	.	.	.	.	.	.	.	.
8D\	8ddd\L	.	8ddd\L	.	.	.	.	.	.	8ff#\	8aa\
8D\J	8ff#\J	.	8aa\J	.	.	.	.	.	.	8ff#\J	8aa\J
=2	=2	=2	=2	=2	=2	=2	=2	=2	=2	=2	=2
*tremolo	*	*	*	*	*	*	*	*	*	*	*
8D\L	8gg\L	.	8bb\L	4d\	-te-	8B\L	-te-	8gg\L	-te-	8gg\L	8bb\L
8D\	8ee\J	.	8gg\J	.	.	8G\J	.	8ee\J	.	8ee\J	8gg\J
.	8qqgg/	.	8qqgg/	.	.	8qqG/	.	8qqee/	.	8qqee/	.
8D\	2ff#\	.	2aa\	2D\	-bor	2A\	-bor	2ff#\	-bor	2ff#\	2aa\
8D\	.	.	.	.	.	.	.	.	.	.	.
8D\	.	.	.	.	.	.	.	.	.	.	.
8D\J	.	.	.	.	.	.	.	.	.	.	.
=3	=3	=3	=3	=3	=3	=3	=3	=3	=3	=3	=3
8D\L	8dd\L	.	8dd\L	4d\	ti-	4A/	ti-	4ff#\	ti-	4ff#\	4aa\
8D\	16ee\L	.	16ee\L	.	.	.	.	.	.	.	.
.	16ff#\JJ	.	16ff#\JJ	.	.	.	.	.	.	.	.
8D\	16gg\LL	.	16gg\LL	2d\	-bi	2A/	-bi	2ff#\	-bi	8r	8r
.	16aa\	.	16aa\	.	.	.	.	.	.	.	.
8D\J	16bb\	.	16bb\	.	.	.	.	.	.	8ff#\L	8aa\L
.	16ccc#\JJ	.	16ccc#\JJ	.	.	.	.	.	.	.	.
*Xtremolo	*	*	*	*	*	*	*	*	*	*	*
8AA/L	8ddd\L	.	8ddd\L	.	.	.	.	.	.	8ff#\	8aa\
8AA/J	8ff#\J	.	8aa\J	.	.	.	.	.	.	8ff#\J	8aa\J
!	!	!	!	!	!	!	!	!	!	!LO:LB:g=original	!
=4	=4	=4	=4	=4	=4	=4	=4	=4	=4	=4	=4
!LO:TX:a:t=P:problem=mixed beam	!	!	!	!	!	!	!	!	!	!LO:TX:a:t=P:problem=mixed beam	!
8AA/L	8ee\L	.	8gg\L	8AA/	Do-	8G/	Do-	8ee\	Do-	8ee\L	8gg\L
8AA/	8cc#\J	.	8ee\J	8G\	-mi-	8E/	-mi-	8cc#\	-mi-	8a/J	8ee\J
.	8qqcc#/	.	8qqee/	.	.	8qqE/	.	8qqcc#/	.	.	.
8D/	2dd\	.	2ff#\	2D/	-ne	2F#/	-ne	2dd\	-ne	2dd\	2ff#\
8d\	.	.	.	.	.	.	.	.	.	.	.
8A\	.	.	.	.	.	.	.	.	.	.	.
8F#\J	.	.	.	.	.	.	.	.	.	.	.
=5	=5	=5	=5	=5	=5	=5	=5	=5	=5	=5	=5
*tremolo	*	*	*	*	*	*	*	*	*	*	*
!	!	!	!	!	!	!	!	!	!	!LO:TX:a:t=4	!LO:TX:a:t=4
!	!	!	!	!	!	!	!	!	!	!LO:N:vis=00	!
8D\L	8d/L	.	8d/L	4D\	Jn	4f#\	in	4a\	in	0.r	0.r
8D\	16e/L	.	16e/L	.	.	.	.	.	.	.	.
.	16f#/JJ	.	16f#/JJ	.	.	.	.	.	.	.	.
8D\	16g/LL	.	16g/LL	4D\	to-	4f#\	to-	4a\	to-	.	.
.	16a/	.	16a/	.	.	.	.	.	.	.	.
8D\	16b/	.	16b/	.	.	.	.	.	.	.	.
.	16cc#/JJ	.	16cc#/JJ	.	.	.	.	.	.	.	.
!	!LO:TX:a:t=P:problem=mixed beam	!	!	!	!	!	!	!	!	!	!
8D\	8dd\L	.	8dd/L	4D\	-to	4f#\	-to	4a\	-to	.	.
8D\J	8f#/J	.	8a/J	.	.	.	.	.	.	.	.
=6	=6	=6	=6	=6	=6	=6	=6	=6	=6	=6	=6
8D\L	8g/L	.	8b/L	4D\	Cor-	8g\L	Cor-	8b\L	Cor-	.	.
8D\	8e/J	.	8g/J	.	.	8e\J	.	8g\J	.	.	.
.	8qqe/	.	8qqg/	.	.	8qqf#/	.	8qqg/	.	.	.
8D\	2f#/	.	2a/	2D\	-de	2g\	-de	2a\	-de	.	.
8D\	.	.	.	.	.	.	.	.	.	.	.
8D\	.	.	.	.	.	.	.	.	.	.	.
8D\J	.	.	.	.	.	.	.	.	.	.	.
=7	=7	=7	=7	=7	=7	=7	=7	=7	=7	=7	=7
8D\L	8d/L	.	8d/L	4d\	{Cor-	4f#\	{Cor-	4a\	{Cor-	.	.
8D\	16e/L	.	16e/L	.	.	.	.	.	.	.	.
.	16f#/JJ	.	16f#/JJ	.	.	.	.	.	.	.	.
8D\	16g/LL	.	16g/LL	2D\	-de}	2f#\	-de}	2a\	-de}	.	.
.	16a/	.	16a/	.	.	.	.	.	.	.	.
8D\	16b/	.	16b/	.	.	.	.	.	.	.	.
.	16cc#/JJ	.	16cc#/JJ	.	.	.	.	.	.	.	.
!	!LO:TX:a:t=P:problem=mixed beam	!	!	!	!	!	!	!	!	!	!
8D\	8dd/L	.	8dd/L	.	.	.	.	.	.	.	.
8D\J	8f#\J	.	8a/J	.	.	.	.	.	.	.	.
=8	=8	=8	=8	=8	=8	=8	=8	=8	=8	=8	=8
!LO:TX:a:t=P:problem=mixed beam	!	!	!	!	!	!	!	!	!	!	!
8AA/L	8e/L	.	8g/L	4AA/	me-	8e\L	me-	8g/L	me-	.	.
8AA/	8c#/J	.	8e/J	.	.	8c#\J	.	8e/J	.	.	.
.	8qqc#/	.	.	.	.	8qqc#/	.	8qqe/	.	.	.
8D/	2d/	.	2f#/	2D/	-o	2d\	-o	2f#/	-o	.	.
8d\	.	.	.	.	.	.	.	.	.	.	.
8A\	.	.	.	.	.	.	.	.	.	.	.
8F#\J	.	.	.	.	.	.	.	.	.	.	.
!	!	!	!LO:LB:g=original	!	!	!	!	!	!	!	!
=9	=9	=9	=9	=9	=9	=9	=9	=9	=9	=9	=9
8D\L	4r	.	16d/LL	2D/	in	2A\	in	2ff#\	In	4ff#\	4aa\
.	.	.	16d/	.	.	.	.	.	.	.	.
8D\	.	.	16d/	.	.	.	.	.	.	.	.
.	.	.	16d/JJ	.	.	.	.	.	.	.	.
*	*tremolo	*	*tremolo	*	*	*	*	*	*	*	*
8D\	16d/LL	.	16f#/LL	.	.	.	.	.	.	8r	8r
.	16d/	.	16f#/	.	.	.	.	.	.	.	.
8D\	16d/	.	16f#/	.	.	.	.	.	.	8ff#\L	8aa\L
.	16d/JJ	.	16f#/JJ	.	.	.	.	.	.	.	.
8D\	16f#/LL	.	16a/LL	4D/	con-	4A\	Con-	4ff#\	con-	8ff#\	8aa\
.	16f#/	.	16a/	.	.	.	.	.	.	.	.
8D\J	16f#/	.	16a/	.	.	.	.	.	.	8ff#\J	8aa\J
.	16f#/JJ	.	16a/JJ	.	.	.	.	.	.	.	.
*	*Xtremolo	*	*Xtremolo	*	*	*	*	*	*	*	*
!	!LO:LB:g=original	!	!	!	!	!	!	!	!	!	!
=10	=10	=10	=10	=10	=10	=10	=10	=10	=10	=10	=10
*	*	*	*	*	*	*	*	*	*	*tremolo	*
8D\L	16a\LL	.	16dd\LL	4D/	-si-	4A\	-si-	4ff#\	-si-	8ff#\L	8aa\L
.	16a\	.	16dd\	.	.	.	.	.	.	.	.
8D\	16a\	.	16dd\	.	.	.	.	.	.	8ff#\	8aa\
.	16a\JJ	.	16dd\JJ	.	.	.	.	.	.	.	.
*	*	*	*tremolo	*	*	*	*	*	*	*	*
8D\	16dd\LL	.	16ff#\LL	4D/	-li-	4A\	-li-	4ff#\	-li-	8ff#\	8aa\
.	16dd\	.	16ff#\	.	.	.	.	.	.	.	.
8D\	16dd\	.	16ff#\	.	.	.	.	.	.	8ff#\	8aa\
.	16dd\JJ	.	16ff#\JJ	.	.	.	.	.	.	.	.
8D\	16ff#\LL	.	16aa\LL	4d\	-o	4A\	-o	4ff#\	-o	8ff#\	8aa\
.	16ff#\	.	16aa\	.	.	.	.	.	.	.	.
8D\J	16ff#\	.	16aa\	.	.	.	.	.	.	8ff#\J	8aa\J
.	16ff#\JJ	.	16aa\JJ	.	.	.	.	.	.	.	.
*	*	*	*Xtremolo	*	*	*	*	*	*	*Xtremolo	*
=11	=11	=11	=11	=11	=11	=11	=11	=11	=11	=11	=11
!	!	!	!	!	!LO:MO:mod=ius	!	!LO:MO:mod=ius	!	!	!	!
8D\L	4r	.	16d/LL	2.D/	Jus-	2.B\	Jus-	2.bb\	Ius-	4gg\	4bb\
.	.	.	16d/	.	.	.	.	.	.	.	.
8D\	.	.	16d/	.	.	.	.	.	.	.	.
.	.	.	16d/JJ	.	.	.	.	.	.	.	.
*	*tremolo	*	*tremolo	*	*	*	*	*	*	*	*
8D\	16d/LL	.	16g/LL	.	.	.	.	.	.	8r	8r
.	16d/	.	16g/	.	.	.	.	.	.	.	.
8D\	16d/	.	16g/	.	.	.	.	.	.	8gg\L	8bb\L
.	16d/JJ	.	16g/JJ	.	.	.	.	.	.	.	.
!	!LO:TX:a:t=g (dźwięk poprawiony)	!	!	!	!	!	!	!	!	!	!
8D\	16g/LL	.	16b/LL	.	.	.	.	.	.	8gg\	8bb\
.	16g/	.	16b/	.	.	.	.	.	.	.	.
8D\J	16g/	.	16b/	.	.	.	.	.	.	8gg\J	8bb\J
.	16g/JJ	.	16b/JJ	.	.	.	.	.	.	.	.
*	*	*	*Xtremolo	*	*	*	*	*	*	*	*
!	!	!	!	!	!	!LO:LB:g=original	!	!	!	!	!
=12	=12	=12	=12	=12	=12	=12	=12	=12	=12	=12	=12
*	*	*	*	*	*	*	*	*	*	*tremolo	*tremolo
8D\L	16b\LL	.	16dd\LL	2D/	-to-	2B\	-to-	2gg\	-to-	8gg\L	8bb\L
.	16b\	.	16dd\	.	.	.	.	.	.	.	.
8D\	16b\	.	16dd\	.	.	.	.	.	.	8gg\	8bb\
.	16b\JJ	.	16dd\JJ	.	.	.	.	.	.	.	.
*	*Xtremolo	*	*tremolo	*	*	*	*	*	*	*	*
8D\	16b\LL	.	16gg\LL	.	.	.	.	.	.	8gg\	8bb\
.	16dd\	.	16gg\	.	.	.	.	.	.	.	.
8D\	16dd\	.	16gg\	.	.	.	.	.	.	8gg\	8bb\
.	16dd\JJ	.	16gg\JJ	.	.	.	.	.	.	.	.
*	*tremolo	*	*	*	*	*	*	*	*	*	*
8D\	16gg\LL	.	16bb\LL	4D/	-rum	4B\	-rum	4gg\	-rum	8gg\	8bb\
.	16gg\	.	16bb\	.	.	.	.	.	.	.	.
8D\J	16gg\	.	16bb\	.	.	.	.	.	.	8gg\J	8bb\J
.	16gg\JJ	.	16bb\JJ	.	.	.	.	.	.	.	.
*	*	*	*Xtremolo	*	*	*	*	*	*	*Xtremolo	*Xtremolo
!	!	!	!	!LO:LB:g=original	!	!	!	!	!	!	!
=13	=13	=13	=13	=13	=13	=13	=13	=13	=13	=13	=13
!	!	!	!	!	!	!LO:TX:a:t=P:problem=laska nieczytelna	!	!	!	!	!
8D\L	4r	.	16d/LL	2.d\	et	2.A\	et	2.ff#\	et	4ff#\	4aa\
.	.	.	16d/	.	.	.	.	.	.	.	.
8D\	.	.	16d/	.	.	.	.	.	.	.	.
.	.	.	16d/JJ	.	.	.	.	.	.	.	.
*	*tremolo	*	*tremolo	*	*	*	*	*	*	*	*
8D\	16d/LL	.	16f#/LL	.	.	.	.	.	.	8r	8r
.	16d/	.	16f#/	.	.	.	.	.	.	.	.
8D\	16d/	.	16f#/	.	.	.	.	.	.	8ff#\L	8aa\L
.	16d/JJ	.	16f#/JJ	.	.	.	.	.	.	.	.
8D\	16f#/LL	.	16a/LL	.	.	.	.	.	.	8ff#\	8aa\
.	16f#/	.	16a/	.	.	.	.	.	.	.	.
8D\J	16f#/	.	16a/	.	.	.	.	.	.	8ff#\J	8aa\J
.	16f#/JJ	.	16a/JJ	.	.	.	.	.	.	.	.
*	*	*	*Xtremolo	*	*	*	*	*	*	*	*
!	!	!	!	!	!	!	!	!	!	!	!LO:LB:g=original
=14	=14	=14	=14	=14	=14	=14	=14	=14	=14	=14	=14
!	!	!	!	!	!	!LO:TX:a:t=P:problem=laska nieczytelna	!	!	!	!	!
*	*	*	*	*	*	*	*	*	*	*tremolo	*tremolo
8D\L	16a\LL	.	16dd\LL	2d\	Con-	2A\	Con-	2ff#\	Con-	8ff#\L	8aa\L
.	16a\	.	16dd\	.	.	.	.	.	.	.	.
8D\	16a\	.	16dd\	.	.	.	.	.	.	8ff#\	8aa\
.	16a\JJ	.	16dd\JJ	.	.	.	.	.	.	.	.
*	*	*	*tremolo	*	*	*	*	*	*	*	*
8D\	16dd\LL	.	16ff#\LL	.	.	.	.	.	.	8ff#\	8aa\
.	16dd\	.	16ff#\	.	.	.	.	.	.	.	.
8D\	16dd\	.	16ff#\	.	.	.	.	.	.	8ff#\	8aa\
.	16dd\JJ	.	16ff#\JJ	.	.	.	.	.	.	.	.
!	!	!	!	!	!	!LO:TX:a:t=P:problem=laska nieczytelna	!	!	!	!	!
*	*tremolo	*	*	*	*	*	*	*	*	*	*
8D\	16ff#\LL	.	16aa\LL	4d\	-gre-	4A\	-gre-	4ff#\	-gre-	8ff#\	8aa\
.	16ff#\	.	16aa\	.	.	.	.	.	.	.	.
8D\J	16ff#\	.	16aa\	.	.	.	.	.	.	8ff#\J	8aa\J
.	16ff#\JJ	.	16aa\JJ	.	.	.	.	.	.	.	.
*Xtremolo	*Xtremolo	*	*Xtremolo	*	*	*	*	*	*	*Xtremolo	*Xtremolo
!	!	!	!	!	!	!	!	!LO:LB:g=original	!	!	!
=15	=15	=15	=15	=15	=15	=15	=15	=15	=15	=15	=15
8AA/L	8e/	.	8a/	4A\	-ga-	8e\	-ga-	8gg\	-ga-	2ee\	2gg\
8AA/	4ee\	.	4gg\	.	.	4e\	.	8gg\	.	.	.
8C#/	.	.	.	4c#\	.	.	.	4ff#\	.	.	.
8C#/	4dd\	.	4ff#\	.	.	4d\	.	.	.	.	.
8AA/	.	.	.	4A\	-ti-	.	.	4ee\	-ti-	4a/	4ee\
8AA/J	8cc#\	.	8ee\	.	.	8c#\	-ti-	.	.	.	.
!LO:LB:g=original	!	!	!	!	!	!	!	!	!	!	!
=16	=16	=16	=16	=16	=16	=16	=16	=16	=16	=16	=16
!LO:TX:a:t=P:problem=mixed beam	!	!	!	!	!	!	!	!	!	!	!
8AA/L	4dd\	.	4ff#\	4A\	-o-	4d\	-o-	4ff#\	-o-	4dd\	4ff#\
8A\	.	.	.	.	.	.	.	.	.	.	.
8E\	4cc#\	.	4ee\	4A\	-ne	4c#\	-ne	4ee\	-ne	4a/	4ee\
8E\J	.	.	.	.	.	.	.	.	.	.	.
8C#/L	4r	.	4r	4r	.	4r	.	4r	.	4r	4r
8AA/J	.	.	.	.	.	.	.	.	.	.	.
=17	=17	=17	=17	=17	=17	=17	=17	=17	=17	=17	=17
!	!	!	!LO:TX:a:t=P:problem=mixed beam	!	!	!	!	!	!	!LO:TX:a:t=4	!LO:TX:a:t=4
!	!	!	!	!	!	!	!	!	!	!LO:N:vis=00	!
*tremolo	*	*	*	*	*	*	*	*	*	*	*
8E\L	8b\L	.	16d/LL	4E\	Ma-	4B\	Ma-	4dd\	Ma-	0.r	0.r
.	.	.	16dd\	.	.	.	.	.	.	.	.
8E\	8b\	.	16cc#\	.	.	.	.	.	.	.	.
.	.	.	16dd\JJ	.	.	.	.	.	.	.	.
8E\	8b\	.	16bb\LL	8E\	-gna	8B\	-gna	8dd\	-gna	.	.
.	.	.	16dd\	.	.	.	.	.	.	.	.
8E\	8b\	.	16cc#\	8E\	o-	8B\	O-	8dd\	O-	.	.
.	.	.	16dd\JJ	.	.	.	.	.	.	.	.
!	!	!	!LO:LB:g=original	!	!	!	!	!	!	!	!
!	!	!	!LO:TX:a:t=P:problem=mixed beam	!	!	!	!	!	!	!	!
8E\	8b\	.	16e/LL	8E\	-pe-	8B\	-pe-	8dd\	-pe-	.	.
.	.	.	16dd\	.	.	.	.	.	.	.	.
8E\J	8b\J	.	16cc#\	8E\	-ra	8B\	-ra	8dd\	-ra	.	.
.	.	.	16dd\JJ	.	.	.	.	.	.	.	.
*Xtremolo	*	*	*	*	*	*	*	*	*	*	*
=18	=18	=18	=18	=18	=18	=18	=18	=18	=18	=18	=18
8A\L	8.a/L	.	8.cc#\L	2A\	Do-	8A\	Do-	8cc#\	Do-	.	.
8A\	.	.	.	.	.	8B\	-mi-	8dd\	-mi-	.	.
.	16b/Jk	.	16dd\Jk	.	.	.	.	.	.	.	.
.	8qqb/	.	8qqdd/	.	.	.	.	8qqdd/	.	.	.
8E\	2cc#/	.	2ee\	.	.	2c#\	-ni	2ee\	-ni	.	.
8A\J	.	.	.	.	.	.	.	.	.	.	.
8C#/L	.	.	.	8C#/	-mi-	.	.	.	.	.	.
8AA/J	.	.	.	8AA/	-ni	.	.	.	.	.	.
=19	=19	=19	=19	=19	=19	=19	=19	=19	=19	=19	=19
*tremolo	*	*	*	*	*	*	*	*	*	*	*
!	!	!	!LO:TX:a:t=P:problem=mixed beam	!	!	!	!	!	!	!	!
.	.	.	.	.	.	8qqc#/	.	.	.	.	.
8E\L	8b/L	.	16e/LL	4E\	ex-	4B\	ex-	4dd\	ex-	.	.
.	.	.	16dd\	.	.	.	.	.	.	.	.
8E\	8b/	.	16cc#\	.	.	.	.	.	.	.	.
.	.	.	16dd\JJ	.	.	.	.	.	.	.	.
8E\	8b/	.	16bb\LL	8E\	-qui-	8B\	-qui-	8dd\	-qui-	.	.
.	.	.	16dd\	.	.	.	.	.	.	.	.
8E\	8b/	.	16cc#\	8E\	-si-	8B\	-si-	8dd\	-si-	.	.
.	.	.	16dd\JJ	.	.	.	.	.	.	.	.
!	!	!	!LO:TX:a:t=P:problem=mixed beam	!	!	!	!	!	!	!	!
8E\	8b/	.	16e/LL	8E\	-ta	8B\	-ta	8dd\	-ta	.	.
.	.	.	16dd\	.	.	.	.	.	.	.	.
8E\J	8b/J	.	16cc#\	8E\	in	8B\	in	8dd\	in	.	.
.	.	.	16dd\JJ	.	.	.	.	.	.	.	.
*Xtremolo	*	*	*	*	*	*	*	*	*	*	*
=20	=20	=20	=20	=20	=20	=20	=20	=20	=20	=20	=20
!LO:TX:a:t=P:problem=mixed beam	!	!	!	!	!	!	!	!	!LO:MO:mod=om	!	!
8AA/L	8.a/L	.	8.cc#\L	4A\	Om-	8.A\L	om-	8.cc#\L	o-	.	.
8A\	.	.	.	.	.	.	.	.	.	.	.
.	16b/Jk	.	16dd\Jk	.	.	16B\Jk	.	16dd\Jk	.	.	.
.	8qqb/	.	8qqdd/	.	.	.	.	8qqdd/	.	.	.
8E\	2cc#\	.	2ee\	8A\L	.	2c#\	-nes	2ee\	-nes	.	.
8A\J	.	.	.	8E\J	.	.	.	.	.	.	.
8C#/L	.	.	.	8C#/L	-nes	.	.	.	.	.	.
8AA/J	.	.	.	8AA/J	.	.	.	.	.	.	.
=21	=21	=21	=21	=21	=21	=21	=21	=21	=21	=21	=21
*tremolo	*	*	*	*	*	*	*	*	*	*	*
8D/L	16ff#\LL	.	16ff#\LL	4D\	Vo-	2d\	Vo-	2ff#\	Vo-	4dd\	4ff#\
.	16dd\	.	16dd\	.	.	.	.	.	.	.	.
8D/	16cc#\	.	16cc#X\	.	.	.	.	.	.	.	.
.	16dd\JJ	.	16dd\JJ	.	.	.	.	.	.	.	.
8D/	16dd\LL	.	16ee\LL	2D\	-lun-	.	.	.	.	4r	4r
.	16ff#\	.	16ff#\	.	.	.	.	.	.	.	.
8D/	16gg#X\	.	16gg#X\	.	.	.	.	.	.	.	.
.	16aa\JJ	.	16aa\JJ	.	.	.	.	.	.	.	.
8D/	8bb\L	.	8bb\L	.	.	4d\	-lun-	4ff#\	-lun-	4dd\	4ff#\
8D/J	8dd\J	.	8dd\J	.	.	.	.	.	.	.	.
!	!LO:LB:g=original	!	!	!LO:LB:g=original	!	!LO:LB:g=original	!	!	!	!	!
=22	=22	=22	=22	=22	=22	=22	=22	=22	=22	=22	=22
8AA/L	16ee\LL	.	16ee\LL	2A\	-ta-	2c#\	-ta-	2ee\	-ta-	4a/	4ee\
.	16cc#\	.	16cc#\	.	.	.	.	.	.	.	.
8AA/	16b\	.	16b\	.	.	.	.	.	.	.	.
.	16cc#\JJ	.	16cc#\JJ	.	.	.	.	.	.	.	.
8AA/	16dd\LL	.	16dd\LL	.	.	.	.	.	.	4r	4r
.	16ee\	.	16ee\	.	.	.	.	.	.	.	.
8AA/	16ff#\	.	16ff#\	.	.	.	.	.	.	.	.
.	16gg\JJ	.	16gg\JJ	.	.	.	.	.	.	.	.
!	!	!	!LO:TX:a:t=P:problem=mixed beam	!	!	!	!	!	!	!	!
8AA/	8aa\L	.	8aa\L	4A\	-tes	4c#\	-tes	4ee\	-tes	4a/	4ee\
8AA/J	8cc#\J	.	8cc#/J	.	.	.	.	.	.	.	.
*Xtremolo	*	*	*	*	*	*	*	*	*	*	*
=23	=23	=23	=23	=23	=23	=23	=23	=23	=23	=23	=23
*	*Xtuplet	*	*Xtuplet	*	*	*Xtuplet	*	*Xtuplet	*	*	*
!	!	!	!LO:TX:a:t=P:global:problem=klamra łukowa	!	!	!LO:TX:a:t=P:problem=nieczytelna adnotacja pod triolą (3?)	!	!LO:TX:a:t=P:problem=brak ozanaczenia trioli	!	!	!
!	!	!	!	!	!	!LO:TX:a:t=P:problem=brak oznaczenia trioli	!	!	!	!	!
8D/L	8b\L	.	(12ff#\L	4D\	e-	12d\L	E-	12ff#\L	e-	4dd\	4ff#\
.	.	.	12ee\	.	.	12c#\	.	12ee\	.	.	.
8D/	8b\J	.	.	.	.	.	.	.	.	.	.
.	.	.	12dd\J)	.	.	12B\J	.	12dd\J	.	.	.
!	!LO:TX:a:t=P:problem=brak oznaczenia trioli	!	!	!	!	!	!	!	!	!	!
8BB/	12e/L	.	(12cc#\L	8BB/L	.	4A/	.	4cc#\	.	4ee\	4ee\
.	12d/	.	12b\	.	.	.	.	.	.	.	.
8D/	.	.	.	8D/J	.	.	.	.	.	.	.
.	12c#/J	.	12a\J)	.	.	.	.	.	.	.	.
8E/	12B/L	.	(12g#X/L	4E\	.	4G#X/	.	4b\	.	4ee\	4ee\
.	12c#/	.	12a/	.	.	.	.	.	.	.	.
8E/J	.	.	.	.	.	.	.	.	.	.	.
.	12d/J	.	12b/J)	.	.	.	.	.	.	.	.
=24	=24	=24	=24	=24	=24	=24	=24	=24	=24	=24	=24
!LO:TX:a:t=P:problem=mixed beam	!	!	!	!	!	!	!	!LO:SIC:o=2a	!	!	!
8AA/L	8c#/L	.	8a/L	4AA/	-jus	4A/	-jus	4a\	-ius	4a/	4ee\
8A\	8a/	.	8a/	.	.	.	.	.	.	.	.
8E\	8e/	.	8e/	4r	.	4r	.	4r	.	4r	4r
8C#\J	8c#/J	.	8c#/J	.	.	.	.	.	.	.	.
8AA/L	4A/	.	4A/	4r	.	4r	.	4r	.	4r	4r
8AA/J	.	.	.	.	.	.	.	.	.	.	.
!	!	!	!	!	!	!	!	!	!	!LO:LB:g=original	!
=25	=25	=25	=25	=25	=25	=25	=25	=25	=25	=25	=25
*tremolo	*	*	*	*	*	*	*	*	*	*	*
!	!	!	!	!LO:TX:a:t=17	!	!	!	!	!	!LO:TX:a:t=17	!LO:TX:a:t=17
!	!LO:TX:a:t=P:problem=brak oznaczenia trioli	!	!	!LO:N:vis=00	!	!LO:N:vis=00	!	!LO:TX:a:t=P:problem=brak ozanaczenia trioli	!	!LO:N:vis=00	!
8AA/L	12cc#\L	.	(12ee\L	0.r	.	0.r	.	12ee\L	Con-	0.r	0.r
.	12b\	.	12dd\	.	.	.	.	12dd\	.	.	.
8AA/	.	.	.	.	.	.	.	.	.	.	.
.	12a\J	.	12cc#\J)	.	.	.	.	12cc#\J	.	.	.
!	!	!	!	!	!	!	!	!	!LO:MO:mod=fes	!	!
8AA/	4a\	.	4cc#\	.	.	.	.	4cc#\	-fe-	.	.
8AA/	.	.	.	.	.	.	.	.	.	.	.
8AA/	8b\L	.	8dd\L	.	.	.	.	8dd\	-si-	.	.
8AA/J	8cc#\J	.	8ee\J	.	.	.	.	8ee\	-o	.	.
!	!	!	!LO:LB:g=original	!	!	!	!	!LO:LB:g=original	!	!	!
*Xtremolo	*	*	*	*	*	*	*	*	*	*	*
=26	=26	=26	=26	=26	=26	=26	=26	=26	=26	=26	=26
4D/	4dd\	.	4ff#\	.	.	.	.	8ff#\	et	.	.
.	.	.	.	.	.	.	.	8ff#\	mag-	.	.
8C#/L	4cc#\	.	4ee\	.	.	.	.	4ee\	-ni-	.	.
8AA/	.	.	.	.	.	.	.	.	.	.	.
8BB/	4b\	.	4dd\	.	.	.	.	4dd\	-fi-	.	.
8C#/J	.	.	.	.	.	.	.	.	.	.	.
=27	=27	=27	=27	=27	=27	=27	=27	=27	=27	=27	=27
8A\L	4b\	.	4dd\	.	.	.	.	4dd\	-cen-	.	.
8A\	.	.	.	.	.	.	.	.	.	.	.
8A\	8a\L	.	8cc#\L	.	.	.	.	8cc#\L	-ti-	.	.
8E\J	8g#X\J	.	8b\J	.	.	.	.	8b\J	.	.	.
.	8qqg#/	.	.	.	.	.	.	.	.	.	.
8C#/L	4a\	.	4cc#\	.	.	.	.	4cc#\	-a	.	.
8AA/J	.	.	.	.	.	.	.	.	.	.	.
=28	=28	=28	=28	=28	=28	=28	=28	=28	=28	=28	=28
!	!LO:TX:a:t=P:problem=brak oznaczenia trioli	!	!	!	!	!	!	!LO:TX:a:t=P:problem=brak ozanaczenia trioli	!	!	!
8AA/L	12a\L	.	(12cc#\L	.	.	.	.	12cc#\L	O-	.	.
.	12b\	.	12dd\	.	.	.	.	12dd\	.	.	.
8AA/	.	.	.	.	.	.	.	.	.	.	.
.	12cc#\J	.	12ee\J)	.	.	.	.	12ee\J	.	.	.
8GG#X/	4b\	.	4dd\	.	.	.	.	4dd\	.	.	.
8GG#/	.	.	.	.	.	.	.	.	.	.	.
8AA/	4a\	.	4cc#\	.	.	.	.	4cc#\	-pus	.	.
8AA/J	.	.	.	.	.	.	.	.	.	.	.
=29	=29	=29	=29	=29	=29	=29	=29	=29	=29	=29	=29
!	!	!	!	!LO:N:vis=00	!	!LO:N:vis=00	!	!	!	!LO:N:vis=00	!
8E\L	4a/	.	4cc#\	0.r	.	0.r	.	4cc#\	E-	0.r	0.r
8e\	.	.	.	.	.	.	.	.	.	.	.
!	!LO:SIC:s=4g#	!	!	!	!	!	!	!	!	!	!
8B\	4g/	.	4b\	.	.	.	.	4b\	-jus	.	.
8A\	.	.	.	.	.	.	.	.	.	.	.
8G#X\	4r	.	4r	.	.	.	.	4r	.	.	.
8F#\J	.	.	.	.	.	.	.	.	.	.	.
=30	=30	=30	=30	=30	=30	=30	=30	=30	=30	=30	=30
*tremolo	*	*	*	*	*	*	*	*	*	*	*
!	!LO:SIC:s=2g#	!	!	!	!	!	!	!	!	!	!
8E\L	2g/	.	2b\	.	.	.	.	2b\	et	.	.
8E\	.	.	.	.	.	.	.	.	.	.	.
8E\	.	.	.	.	.	.	.	.	.	.	.
8E\	.	.	.	.	.	.	.	.	.	.	.
8E\	4b/	.	4dd\	.	.	.	.	4dd\	ius-	.	.
8E\J	.	.	.	.	.	.	.	.	.	.	.
!LO:LB:g=original	!	!	!	!	!	!	!	!	!	!	!
=31	=31	=31	=31	=31	=31	=31	=31	=31	=31	=31	=31
8E\L	8b\L	.	8dd\L	.	.	.	.	8dd\	-ti-	.	.
!	!	!	!	!	!	!	!	!	!LO:MO:mod=ti	!	!
8E\	8a\J	.	8cc#\J	.	.	.	.	8cc#\	-ci-	.	.
.	8qqa/	.	8qqcc#/	.	.	.	.	8qqcc#/	.	.	.
8E\	2b\	.	2dd\	.	.	.	.	2dd\	-a	.	.
8e\	.	.	.	.	.	.	.	.	.	.	.
8B\	.	.	.	.	.	.	.	.	.	.	.
8G#X\J	.	.	.	.	.	.	.	.	.	.	.
=32	=32	=32	=32	=32	=32	=32	=32	=32	=32	=32	=32
!	!LO:SIC:s=2g#	!	!	!	!	!	!	!	!	!	!
8E\L	2g/	.	4b\	.	.	.	.	2b\	e-	.	.
8E\	.	.	.	.	.	.	.	.	.	.	.
8E\	.	.	4b\	.	.	.	.	.	.	.	.
8E\	.	.	.	.	.	.	.	.	.	.	.
8E\	4b\	.	4dd\	.	.	.	.	4dd\	-jus	.	.
8E\J	.	.	.	.	.	.	.	.	.	.	.
=33	=33	=33	=33	=33	=33	=33	=33	=33	=33	=33	=33
!	!	!	!	!LO:N:vis=00	!	!LO:N:vis=00	!	!	!	!LO:N:vis=00	!
8E\L	8b\L	.	8dd\L	0.r	.	0.r	.	8dd\L	ma-	0.r	0.r
8E\	8a\J	.	8cc#\J	.	.	.	.	8cc#\J	.	.	.
.	8qqa/	.	8qqcc#/	.	.	.	.	8qqcc#/	.	.	.
8E\	4.b\	.	4.dd\	.	.	.	.	4.dd\	-net	.	.
8e\	.	.	.	.	.	.	.	.	.	.	.
8B\	.	.	.	.	.	.	.	.	.	.	.
!	!LO:SIC:s=8g#	!	!	!	!	!	!	!	!	!	!
8G#X\J	8g\	.	8b\	.	.	.	.	8cc#\	in	.	.
!	!LO:LB:g=original	!	!	!	!	!	!	!	!	!	!
=34	=34	=34	=34	=34	=34	=34	=34	=34	=34	=34	=34
8A\L	8a/L	.	16cc#\LL	.	.	.	.	16cc#\LL	Se-	.	.
!	!	!	!	!	!	!	!	!	!LO:MO:mod=sae	!	!
.	.	.	16aa\	.	.	.	.	16aa\JJ	.	.	.
8D\J	8b/J	.	16ff#\	.	.	.	.	16ff#\	-cu-	.	.
.	.	.	16dd\JJ	.	.	.	.	16ee\	-lum	.	.
!	!	!	!	!	!	!	!	!	!LO:MO:mod=sae	!	!
8E\L	4a/	.	4cc#\	.	.	.	.	4cc#\	Se-	.	.
8E\	.	.	.	.	.	.	.	.	.	.	.
8E\	4g#X/	.	4b\	.	.	.	.	4b\	-cu-	.	.
8E\J	.	.	.	.	.	.	.	.	.	.	.
*Xtremolo	*	*	*	*	*	*	*	*	*	*	*
=35	=35	=35	=35	=35	=35	=35	=35	=35	=35	=35	=35
!LO:TX:a:t=P:problem=mixed beam	!	!	!	!	!	!	!	!	!	!	!
8AA/L	8a/L	.	8a/L	.	.	.	.	4a\	-li	.	.
8A\	8a/	.	8a/	.	.	.	.	.	.	.	.
8E\	8e/	.	8e/	.	.	.	.	4r	.	.	.
8C#\J	8c#/J	.	8c#/J	.	.	.	.	.	.	.	.
8AA/L	4A/	.	4A/	.	.	.	.	4r	.	.	.
8AA/J	.	.	.	.	.	.	.	.	.	.	.
=36	=36	=36	=36	=36	=36	=36	=36	=36	=36	=36	=36
*tremolo	*	*	*	*	*	*	*	*	*	*	*
!	!LO:TX:a:t=P:problem=pochyła adnotacja 3 (?)	!	!	!	!	!	!	!LO:N:vis=00	!	!	!
8AA/L	12cc#\L	.	(12ee\L	.	.	.	.	0.r	.	.	.
.	12b\	.	12dd\	.	.	.	.	.	.	.	.
8AA/	.	.	.	.	.	.	.	.	.	.	.
.	12a\J	.	12cc#\J)	.	.	.	.	.	.	.	.
8AA/	4.a\	.	4.cc#\	.	.	.	.	.	.	.	.
8AA/	.	.	.	.	.	.	.	.	.	.	.
8AA/	.	.	.	.	.	.	.	.	.	.	.
8AA/J	8cc#\	.	8ee\	.	.	.	.	.	.	.	.
=37	=37	=37	=37	=37	=37	=37	=37	=37	=37	=37	=37
!LO:TX:a:t=P:problem=mixed beam	!	!	!	!LO:N:vis=00	!	!LO:N:vis=00	!	!	!	!LO:N:vis=00	!
8E\L	8.g#X/L	.	8.b\L	0.r	.	0.r	.	.	.	0.r	0.r
8E\	.	.	.	.	.	.	.	.	.	.	.
.	16b/Jk	.	16dd\Jk	.	.	.	.	.	.	.	.
.	8qqb/	.	8qqdd/	.	.	.	.	.	.	.	.
8AA/	2a/	.	2cc#\	.	.	.	.	.	.	.	.
8A\J	.	.	.	.	.	.	.	.	.	.	.
8E\L	.	.	.	.	.	.	.	.	.	.	.
8C#\J	.	.	.	.	.	.	.	.	.	.	.
=38	=38	=38	=38	=38	=38	=38	=38	=38	=38	=38	=38
!	!LO:TX:a:t=P:problem=brak oznaczenia trioli	!	!	!	!	!	!	!	!	!	!
8AA/L	12cc#\L	.	(12ee\L	.	.	.	.	.	.	.	.
.	12b\	.	12dd\	.	.	.	.	.	.	.	.
8AA/	.	.	.	.	.	.	.	.	.	.	.
.	12a\J	.	12cc#\J)	.	.	.	.	.	.	.	.
8AA/	4.a\	.	4.cc#\	.	.	.	.	.	.	.	.
8AA/	.	.	.	.	.	.	.	.	.	.	.
8AA/	.	.	.	.	.	.	.	.	.	.	.
8AA/J	8cc#\	.	8ee\	.	.	.	.	.	.	.	.
=39	=39	=39	=39	=39	=39	=39	=39	=39	=39	=39	=39
!LO:TX:a:t=P:problem=omyłkowe powtórzenie taktu	!	!	!	!	!	!	!	!	!	!	!
8AA/L	2.ryy	.	2.ryy	.	.	.	.	.	.	.	.
8AA/	.	.	.	.	.	.	.	.	.	.	.
8AA/	.	.	.	.	.	.	.	.	.	.	.
8AA/	.	.	.	.	.	.	.	.	.	.	.
8AA/	.	.	.	.	.	.	.	.	.	.	.
8AA/J	.	.	.	.	.	.	.	.	.	.	.
!	!	!	!LO:LB:g=original	!	!	!	!	!	!	!	!
*Xtremolo	*	*	*	*	*	*	*	*	*	*	*
=40	=40	=40	=40	=40	=40	=40	=40	=40	=40	=40	=40
!LO:TX:a:t=P:problem=mixed beam	!LO:SIC:s=8.g#	!	!	!	!	!	!	!LO:N:vis=0	!	!	!
8E\L	8.g/L	.	8.b\L	.	.	.	.	1.r	.	.	.
8E\	.	.	.	.	.	.	.	.	.	.	.
.	16b/Jk	.	16dd\Jk	.	.	.	.	.	.	.	.
!	!LO:SIC:s=2a	!	!	!	!	!	!	!	!	!	!
.	.	.	8qqdd/	.	.	.	.	.	.	.	.
8A\	2b/	.	2cc#\	.	.	.	.	.	.	.	.
8AA/	.	.	.	.	.	.	.	.	.	.	.
8C#/	.	.	.	.	.	.	.	.	.	.	.
8AA/J	.	.	.	.	.	.	.	.	.	.	.
=41	=41	=41	=41	=41	=41	=41	=41	=41	=41	=41	=41
!	!	!	!	!LO:N:vis=00	!	!LO:N:vis=0	!	!LO:N:vis=0	!	!LO:N:vis=0	!
8D/L	8f#/L	.	16b\LL	1.r	.	1.r	.	.	.	1.r	1.r
.	.	.	16ff#\	.	.	.	.	.	.	.	.
8BB/	8d/J	.	16dd\	.	.	.	.	.	.	.	.
.	.	.	16b\JJ	.	.	.	.	.	.	.	.
8E/	4c#/	.	4a/	.	.	.	.	.	.	.	.
8D/	.	.	.	.	.	.	.	.	.	.	.
8E/	4B/	.	4g#X/	.	.	.	.	.	.	.	.
8EE/J	.	.	.	.	.	.	.	.	.	.	.
=42	=42	=42	=42	=42	=42	=42	=42	=42	=42	=42	=42
4AA/	8a\L	.	8a/L	.	.	.	.	2.r	.	.	.
.	16b\L	.	16b/L	.	.	.	.	.	.	.	.
.	16cc#\JJ	.	16cc#/JJ	.	.	.	.	.	.	.	.
4r	16dd\LL	.	16dd\LL	.	.	.	.	.	.	.	.
.	16ee\	.	16ee\	.	.	.	.	.	.	.	.
.	16ff#\	.	16ff#\	.	.	.	.	.	.	.	.
.	16gg#X\JJ	.	16gg#X\JJ	.	.	.	.	.	.	.	.
4r	4aa\	.	4aa\	.	.	.	.	.	.	.	.
=43	=43	=43	=43	=43	=43	=43	=43	=43	=43	=43	=43
*tremolo	*	*	*	*	*	*	*	*	*	*	*
!	!LO:TX:a:t=P:problem=takty 43-46 ujęte w repetycję	!	!	!	!	!	!	!	!	!	!
8AA/L	2.cc#\	.	(12ee\L	4A\	Me-	4c#\	Me-	4ee\	Me-	4a/	4ee\
.	.	.	12dd\	.	.	.	.	.	.	.	.
8AA/	.	.	.	.	.	.	.	.	.	.	.
.	.	.	12cc#\J)	.	.	.	.	.	.	.	.
8AA/	.	.	(12cc#\L	4A\	-mo-	4c#\	-mo-	4ee\	-mo-	4r	4r
.	.	.	12b\	.	.	.	.	.	.	.	.
8AA/	.	.	.	.	.	.	.	.	.	.	.
.	.	.	12a\J)	.	.	.	.	.	.	.	.
8AA/	.	.	4a\	8A\	-ri-	8c#\	-ri-	8ee\	-ri-	4r	4r
8AA/J	.	.	.	8A\	-am	8c#\	-am	8ee\	-am	.	.
=44	=44	=44	=44	=44	=44	=44	=44	=44	=44	=44	=44
!	!LO:TX:a:t=P:problem=brak oznaczenia trioli	!	!	!	!	!	!	!	!	!	!
8AA/L	12ee\L	.	(12gg\L	8A\	Fe-	8c#\	fe-	8ee\L	fe-	4ee\	4gg\
.	12dd\	.	12ff#\	.	.	.	.	.	.	.	.
8AA/	.	.	.	8A\	-cit	8c#\	-cit	8ee\J	-cit	.	.
.	12cc#\J	.	12ee\J)	.	.	.	.	.	.	.	.
!	!LO:TX:a:t=P:problem=brak oznaczenia trioli	!	!	!	!	!	!	!	!	!	!
8AA/	12cc#\L	.	(12ee\L	4A\	mi-	4c#\	mi-	4ee\	mi-	4r	4r
.	12b\	.	12dd\	.	.	.	.	.	.	.	.
8AA/	.	.	.	.	.	.	.	.	.	.	.
.	12a\J	.	12cc#\J)	.	.	.	.	.	.	.	.
8AA/	4a\	.	4cc#\	4A\	-ra-	4c#\	-ra-	4ee\	-ra-	4r	4r
8AA/J	.	.	.	.	.	.	.	.	.	.	.
!	!	!	!	!	!	!	!	!LO:LB:g=original	!	!	!
=45	=45	=45	=45	=45	=45	=45	=45	=45	=45	=45	=45
8AA/L	4a/	.	(12cc#\L	8A\	-bi-	8c#\	-bi-	8ee\	-bi-	2a/	2ee\
.	.	.	12b\	.	.	.	.	.	.	.	.
8AA/	.	.	.	8A\	-li-	4c#\	-li-	8ee\	-li-	.	.
.	.	.	12a\J)	.	.	.	.	.	.	.	.
!	!LO:TX:a:t=P:problem=brak oznaczenia trioli	!	!	!	!	!	!	!	!	!	!
8AA/	12a/L	.	(12cc#\L	4C#/	-um	.	.	4gg\	-um	.	.
.	12b/	.	12dd\	.	.	.	.	.	.	.	.
8AA/	.	.	.	.	.	4e\	-um	.	.	.	.
.	12cc#/J	.	12ee\J)	.	.	.	.	.	.	.	.
!	!LO:TX:a:t=P:problem=brak oznaczenia trioli	!	!	!	!	!	!	!	!	!	!
8AA/	12cc#\L	.	(12ee\L	4D/	Su-	.	.	4ff#\	Su-	4ee\	4gg\
.	12dd\	.	12ff#\	.	.	.	.	.	.	.	.
8AA/J	.	.	.	.	.	8d\	Su-	.	.	.	.
.	12ee\J	.	12gg\J)	.	.	.	.	.	.	.	.
*Xtremolo	*	*	*	*	*	*	*	*	*	*	*
=46	=46	=46	=46	=46	=46	=46	=46	=46	=46	=46	=46
!	!	!	!	!	!	!	!	!LO:TX:a:t=P:problem=laska niewidoczna	!	!	!
.	8qqee/	.	8qqgg/	.	.	.	.	.	.	.	.
8AA/L	2dd\	.	2ff#\	2AA/	-o-	2d\	-o-	2ff#\	-o-	4dd\	4ff#\
8AA/	.	.	.	.	.	.	.	.	.	.	.
8D/	.	.	.	.	.	.	.	.	.	8a/L	8ee\L
8D/J	.	.	.	.	.	.	.	.	.	8a/J	8ee\J
!LO:TX:a:t=P:problem=mixed beam	!	!	!	!	!	!	!	!	!	!	!
8A\L	4cc#\	.	4ee\	4AA/	-rum	4c#\	-rum	4ee\	-rum	4a/	4ee\
8AA/J	.	.	.	.	.	.	.	.	.	.	.
!LO:LB:g=original	!	!	!	!	!	!	!	!	!	!	!
=47	=47	=47	=47	=47	=47	=47	=47	=47	=47	=47	=47
!	!LO:TX:a:t=P:problem=takty 47-50 zapisane powtórką	!	!	!	!	!	!	!	!	!	!
*tremolo	*	*	*	*	*	*	*	*	*	*	*
8AA/L	2.cc#\	.	(12ee\L	4AA/	Mi-	4c#\	mi-	4ee\	mi-	4a/	4ee\
.	.	.	12dd\	.	.	.	.	.	.	.	.
8AA/	.	.	.	.	.	.	.	.	.	.	.
.	.	.	12cc#\J)	.	.	.	.	.	.	.	.
8AA/	.	.	(12cc#\L	4AA/	-se-	4c#\	-se-	4ee\	-se-	4r	4r
.	.	.	12b\	.	.	.	.	.	.	.	.
8AA/	.	.	.	.	.	.	.	.	.	.	.
.	.	.	12a\J)	.	.	.	.	.	.	.	.
8AA/	.	.	4a\	4AA/	-ri-	4c#\	-ri-	4ee\	-ri-	4r	4r
8AA/J	.	.	.	.	.	.	.	.	.	.	.
=48	=48	=48	=48	=48	=48	=48	=48	=48	=48	=48	=48
!	!LO:TX:a:t=P:problem=brak oznaczenia trioli	!	!	!	!	!	!	!	!	!	!
8AA/L	12ee\L	.	(12gg\L	2A\	-Cors	2c#\	-Cors	2ee\	-cors	4ee\	4gg\
.	12dd\	.	12ff#\	.	.	.	.	.	.	.	.
8AA/	.	.	.	.	.	.	.	.	.	.	.
.	12cc#\J	.	12ee\J)	.	.	.	.	.	.	.	.
!	!LO:TX:a:t=P:problem=brak oznaczenia trioli	!	!	!	!	!	!	!	!	!	!
8AA/	12cc#\L	.	(12ee\L	.	.	.	.	.	.	4r	4r
.	12b\	.	12dd\	.	.	.	.	.	.	.	.
8AA/	.	.	.	.	.	.	.	.	.	.	.
.	12a\J	.	12cc#\J)	.	.	.	.	.	.	.	.
8AA/	4a\	.	4cc#\	4A\	et	4c#\	et	4ee\	et	4r	4r
8AA/J	.	.	.	.	.	.	.	.	.	.	.
!	!	!	!	!LO:PB:g=original	!	!LO:LB:g=original	!	!	!	!	!
=49	=49	=49	=49	=49	=49	=49	=49	=49	=49	=49	=49
8AA/L	4a/	.	(12cc#\L	8AA/	mi-	8c#\	mi-	8ee\	mi-	4a/	4ee\
.	.	.	12b\	.	.	.	.	.	.	.	.
8AA/	.	.	.	8AA/	-se-	8c#\	-se-	8ee\	-se-	.	.
.	.	.	12a\J)	.	.	.	.	.	.	.	.
!	!LO:TX:a:t=P:problem=brak oznaczenia trioli	!	!LO:LB:g=original	!	!	!	!	!	!	!	!
8AA/	12a/L	.	(12cc#\L	4C#/	-ra-	4f#\	-ra-	4gg\	-ra-	4r	4r
.	12b/	.	12dd\	.	.	.	.	.	.	.	.
8AA/	.	.	.	.	.	.	.	.	.	.	.
.	12cc#/J	.	12ee\J)	.	.	.	.	.	.	.	.
!	!LO:TX:a:t=P:problem=brak oznaczenia trioli	!	!	!	!	!	!	!	!	!	!
8AA/	12cc#\L	.	(12ee\L	4D/	-tor	4d\	-tor	4ff#\	-tor	4ee\	4gg\
.	12dd\	.	12ff#\	.	.	.	.	.	.	.	.
8AA/J	.	.	.	.	.	.	.	.	.	.	.
.	12ee\J	.	12gg\J)	.	.	.	.	.	.	.	.
!	!	!	!	!	!	!	!	!	!	!	!LO:LB:g=original
*Xtremolo	*	*	*	*	*	*	*	*	*	*	*
=50	=50	=50	=50	=50	=50	=50	=50	=50	=50	=50	=50
.	8qqee/	.	8qqgg/	.	.	.	.	.	.	.	.
8AA/L	2dd\	.	2ff#\	4.A\	Do-	4.d\	Do-	4.ff#\	Do-	4dd\	4ff#\
8AA/	.	.	.	.	.	.	.	.	.	.	.
8D/	.	.	.	.	.	.	.	.	.	8r	8r
8D/J	.	.	.	8A\	-mi-	8d\	-mi-	8ff#\	-mi-	8dd\L	8ff#\L
!LO:TX:a:t=P:problem=mixed beam	!LO:TX:b:t=Verte	!	!	!	!	!	!	!	!	!	!
8A\L	4cc#\	.	4ee\	4AA/	-nus	4c#\	-nus	4ee\	-nus	8a\	8ee\
8AA/J	.	.	.	.	.	.	.	.	.	8a\J	8ee\J
!	!LO:PB:g=original	!	!	!	!	!	!	!	!	!	!
=51	=51	=51	=51	=51	=51	=51	=51	=51	=51	=51	=51
*tremolo	*	*	*	*	*	*	*	*	*	*	*
8F#\L	8ccn\L	.	16aa\LL	2F#\	es-	2A\	es-	2ccn\	es-	0.r	0.r
.	.	.	16ccn\	.	.	.	.	.	.	.	.
8F#\	8a\	.	16b\	.	.	.	.	.	.	.	.
.	.	.	16cc\JJ	.	.	.	.	.	.	.	.
!	!	!	!LO:TX:a:t=P:problem=mixed beam	!	!	!	!	!	!	!	!
8F#\	8a\	.	16d/LL	.	.	.	.	.	.	.	.
.	.	.	16cc\	.	.	.	.	.	.	.	.
8F#\J	8a\J	.	16b\	.	.	.	.	.	.	.	.
.	.	.	16cc\JJ	.	.	.	.	.	.	.	.
*Xtremolo	*	*	*	*	*	*	*	*	*	*	*
8D\L	8cc\L	.	16aa\LL	4D\	-cam	4A\	-cam	4cc\	-cam	.	.
.	.	.	16cc\	.	.	.	.	.	.	.	.
8D\J	8a\J	.	16b\	.	.	.	.	.	.	.	.
.	.	.	16cc\JJ	.	.	.	.	.	.	.	.
=52	=52	=52	=52	=52	=52	=52	=52	=52	=52	=52	=52
!LO:TX:a:t=P:problem=mixed beam	!	!	!	!	!	!	!	!	!	!	!
8GG/L	16g/LL	.	16b\LL	(4GG/	de-	4G/	de-	4b\	de-	.	.
.	16g/	.	16b\	.	.	.	.	.	.	.	.
8G\	16g/	.	16b\	.	.	.	.	.	.	.	.
.	16g/JJ	.	16b\JJ	.	.	.	.	.	.	.	.
8F#\	16b\LL	.	4dd\	4G\)	.	2B\	-dit	2dd\	-dit	.	.
.	16b\	.	.	.	.	.	.	.	.	.	.
8G\J	16b\	.	.	.	.	.	.	.	.	.	.
.	16b\JJ	.	.	.	.	.	.	.	.	.	.
8BB/L	16dd\LL	.	16gg\LL	8BB/L	-dit	.	.	.	.	.	.
.	16dd\	.	16gg\	.	.	.	.	.	.	.	.
8GG/J	16gg\	.	16bb\	8GG/J	.	.	.	.	.	.	.
.	16gg\JJ	.	16bb\JJ	.	.	.	.	.	.	.	.
=53	=53	=53	=53	=53	=53	=53	=53	=53	=53	=53	=53
!	!	!	!	!	!	!	!	!LO:SIC:s=2ccn	!	!	!
*tremolo	*	*	*	*	*	*	*	*	*	*	*
8F#\L	8ffn\L	.	16aa\LL	2F#\	es-	2A\	{es-	2cc#\	es-	.	.
!	!	!	!LO:SIC:s=16ccn	!	!	!	!	!	!	!	!
.	.	.	16cc#\	.	.	.	.	.	.	.	.
8F#\	8a\	.	16b\	.	.	.	.	.	.	.	.
!	!	!	!LO:SIC:s=16ccn	!	!	!	!	!	!	!	!
.	.	.	16cc#\JJ	.	.	.	.	.	.	.	.
!	!	!	!LO:TX:a:t=P:problem=mixed beam	!	!	!	!	!	!	!	!
8F#\	8a\	.	16d/LL	.	.	.	.	.	.	.	.
!	!	!	!LO:SIC:s=16ccn	!	!	!	!	!	!	!	!
.	.	.	16cc\	.	.	.	.	.	.	.	.
8F#\J	8a\J	.	16b\	.	.	.	.	.	.	.	.
!	!	!	!LO:SIC:s=16ccn	!	!	!	!	!	!	!	!
.	.	.	16cc#\JJ	.	.	.	.	.	.	.	.
!	!	!	!	!	!	!	!	!LO:SIC:s=4ccn	!	!	!
*Xtremolo	*	*	*	*	*	*	*	*	*	*	*
8D\L	8ccny\L	.	16aa\LL	4D\	-cam	4A\	-cam}	4cc#\	-cam	.	.
!	!	!	!LO:SIC:s=16ccn	!	!	!	!	!	!	!	!
.	.	.	16cc#\	.	.	.	.	.	.	.	.
8D\J	8a\J	.	16b\	.	.	.	.	.	.	.	.
!	!	!	!LO:SIC:s=16ccn	!	!	!	!	!	!	!	!
.	.	.	16cc#\JJ	.	.	.	.	.	.	.	.
=54	=54	=54	=54	=54	=54	=54	=54	=54	=54	=54	=54
!LO:TX:a:t=P:problem=mixed beam	!	!	!	!LO:TX:a:t=P:problem=mixed beam	!	!	!	!	!	!	!
*	*tremolo	*	*	*	*	*	*	*	*	*	*
8GG/L	16g/LL	.	16b\LL	8GG/L	de-	4G/	de-	4b\	de-	.	.
.	16g/	.	16b\	.	.	.	.	.	.	.	.
8G\	16g/	.	16b\	8G\J	.	.	.	.	.	.	.
.	16g/JJ	.	16b\JJ	.	.	.	.	.	.	.	.
8F#\	16b\LL	.	4dd\	8D\L	-dit	4B\	-dit	4dd\	-dit	.	.
.	16b\	.	.	.	.	.	.	.	.	.	.
8G\	16b\	.	.	8G\J	.	.	.	.	.	.	.
.	16b\JJ	.	.	.	.	.	.	.	.	.	.
*	*Xtremolo	*	*	*	*	*	*	*	*	*	*
8B\	16dd\LL	.	16gg\LL	8BB/L	ti-	4B\	ti-	4dd\	ti-	.	.
.	16dd\	.	16gg\	.	.	.	.	.	.	.	.
8G\J	16gg\	.	16bb\	8GG/J	.	.	.	.	.	.	.
.	16gg\JJ	.	16bb\JJ	.	.	.	.	.	.	.	.
=55	=55	=55	=55	=55	=55	=55	=55	=55	=55	=55	=55
!	!	!	!LO:TX:a:t=P:problem=brak łuku, brak oznaczenia trioli	!	!	!LO:TX:a:t=P:problem=adnotacja (innym tuszem)	!	!LO:TX:a:t=P:problem=brak ozanaczenia trioli	!	!	!
!	!	!	!	!	!	!LO:TX:a:t=P:problem=brak oznaczenia trioli	!	!	!	!	!
8BB/L	8g/L	.	12ee\L	8BB/L	-men-	12cn\L	-men-	12ee\L	-men-	0.r	0.r
.	.	.	12dd\	.	.	12B\	.	12dd\	.	.	.
8GG/	8a/J	.	.	8GG/J	.	.	.	.	.	.	.
!	!	!	!LO:SIC:s=8ccn	!	!	!	!	!LO:SIC:s=8ccn	!	!	!
.	.	.	12cc#\J	.	.	12A\J	.	12cc#\J	.	.	.
8E/	4g/	.	4b/	8F#\L	-ti-	4G/	-ti-	4b\	-ti-	.	.
!LO:SIC:s=8Cn	!	!	!	!	!	!	!	!	!	!	!
8C#/	.	.	.	8D\J	.	.	.	.	.	.	.
8D/	4f#/	.	4a/	4E\	-bus	4F#/	-bus	4a\	-bus	.	.
8D/J	.	.	.	.	.	.	.	.	.	.	.
!	!	!	!LO:LB:g=original	!	!	!	!	!	!	!	!
=56	=56	=56	=56	=56	=56	=56	=56	=56	=56	=56	=56
*tremolo	*	*	*	*	*	*	*	*	*	*	*
8GG/L	16B/LL	.	16g/LL	8G\	se	8G/	se	8g\	se	.	.
.	16B/	.	16g/	.	.	.	.	.	.	.	.
8GG/	16g/	.	16b/	8G\	me-	8B\	Me-	8dd\	Me-	.	.
.	16g/JJ	.	16b/JJ	.	.	.	.	.	.	.	.
8GG/	16b\LL	.	16dd\LL	8G\	-mor	8B\	-mor	8dd\	-mor	.	.
.	16b\	.	16dd\	.	.	.	.	.	.	.	.
8GG/	16dd\	.	16gg\	8G\	e-	8B\	e-	8dd\	e-	.	.
.	16dd\JJ	.	16gg\JJ	.	.	.	.	.	.	.	.
8GG/	16gg\LL	.	16bb\LL	8G\	-rit	8B\	-rit	8dd\	-rit	.	.
.	16gg\	.	16bb\	.	.	.	.	.	.	.	.
8GG/J	16b\	.	16dd\	8G\	in	8B\	in	8dd\	in	.	.
.	16b\JJ	.	16dd\JJ	.	.	.	.	.	.	.	.
!	!	!	!	!LO:LB:g=original	!	!	!	!LO:LB:g=original	!	!	!
=57	=57	=57	=57	=57	=57	=57	=57	=57	=57	=57	=57
!	!LO:SIC:s=16ccn	!	!	!	!LO:MO:mod=sae	!	!LO:MO:mod=sae	!	!LO:MO:mod=sae	!	!
8GG/L	16cc#\LL	.	16ee\LL	8G\	Se-	8cn\	Se-	8ee\	Se-	.	.
!	!LO:SIC:s=16ccn	!	!	!	!	!	!	!	!	!	!
.	16cc#\	.	16ee\	.	.	.	.	.	.	.	.
8GG/	16g\	.	16b\	16G\	-cu-	16c\	-cu-	16ee\	-cu-	.	.
.	16g\JJ	.	16b\JJ	16G\	-lum	16c\	-lum	16ee\	-lum	.	.
!	!LO:SIC:s=16ccn	!	!	!	!	!	!	!	!	!	!
8GG/	16cc#\LL	.	16ee\LL	8G\	Tes-	8c\	Tes-	8ee\	tes-	.	.
!	!LO:SIC:s=16ccn	!	!	!	!	!	!	!	!	!	!
.	16cc#\	.	16ee\	.	.	.	.	.	.	.	.
8GG/	16ee\	.	16gg\	8G\	-ta-	8c\	-ta-	8ee\	-ta-	.	.
.	16ee\JJ	.	16gg\JJ	.	.	.	.	.	.	.	.
!	!	!	!LO:SIC:s=16cccn	!	!	!LO:LB:g=original	!	!	!	!	!
8GG/	16gg\LL	.	16ccc#\LL	8G\	-men-	8c\	-men-	8ee\	-men-	.	.
!	!	!	!LO:SIC:s=16cccn	!	!	!	!	!	!	!	!
.	16gg\	.	16ccc#\	.	.	.	.	.	.	.	.
!	!LO:SIC:s=16ccn	!	!	!	!	!	!	!	!	!	!
8GG/J	16cc#\	.	16gg\	8G\	-ti	8c\	-ti	8ee\	-ti	.	.
!	!LO:SIC:s=16ccn	!	!	!	!	!	!	!	!	!	!
.	16cc#\JJ	.	16gg\JJ	.	.	.	.	.	.	.	.
!	!	!	!	!	!	!	!	!LO:TX:a:t=P:problem=kreska taktowa niewidoczna	!	!	!
=58	=58	=58	=58	=58	=58	=58	=58	=58	=58	=58	=58
8GG/L	16b\LL	.	16dd\LL	8G\	Su-	8B\	Su-	8dd\	su-	.	.
.	16b\	.	16dd\	.	.	.	.	.	.	.	.
8GG/	16g\	.	16b\	16G\	-i	16B\	-i	16dd\	-i	.	.
.	16g\JJ	.	16b\JJ	16G\	vir-	16B\	vir-	16dd\	vir-	.	.
8GG/	16b\LL	.	16dd\LL	8G\	-tu-	8B\	-tu-	8dd\	-tu-	.	.
.	16b\	.	16dd\	.	.	.	.	.	.	.	.
8GG/	16dd\	.	16gg\	8G\	-tem	8B\	-tem	8dd\	-tem	.	.
.	16dd\JJ	.	16gg\JJ	.	.	.	.	.	.	.	.
8GG/	16gg\LL	.	16bb\LL	8G\	o-	8B\	O-	8dd\	o-	.	.
.	16gg\	.	16bb\	.	.	.	.	.	.	.	.
8GG/J	16b\	.	16dd\	8G\	-pe-	8B\	-pe-	8dd\	-pe-	.	.
.	16b\JJ	.	16dd\JJ	.	.	.	.	.	.	.	.
=59	=59	=59	=59	=59	=59	=59	=59	=59	=59	=59	=59
!	!	!	!	!	!	!	!	!LO:SIC:s=8ccn	!	!	!
8D\L	16a/LL	.	16ccn\LL	8D/	-rum	8A\	-rum	8cc#\	-rum	0.r	0.r
.	16a/	.	16cc\	.	.	.	.	.	.	.	.
!	!	!	!	!	!	!	!	!LO:SIC:s=8ccn	!	!	!
8D\	16f#/	.	16a\	8D/	Su-	8A\	su-	8cc#\	su-	.	.
.	16f#/JJ	.	16a\JJ	.	.	.	.	.	.	.	.
!	!	!	!	!	!	!	!	!LO:SIC:s=8ccn	!	!	!
8D\	16a/LL	.	16cc\LL	8D/	-o-	8A\	-o-	8cc#\	-o-	.	.
.	16a/	.	16cc\	.	.	.	.	.	.	.	.
!	!	!	!	!	!	!	!	!LO:SIC:s=16ccn	!	!	!
8D\	16dd/	.	16ff#\	16D/	-rum	16A\	-rum	16cc#\	-rum	.	.
!	!	!	!	!	!LO:MO:mod=an	!	!LO:MO:mod=an	!LO:SIC:s=16ccn	!	!	!
.	16dd/JJ	.	16ff#\JJ	16D/	a-	16A\	a-	16cc#\	an-	.	.
!	!	!	!	!	!	!	!	!LO:SIC:s=8ccn	!	!	!
8D\	16ff#\LL	.	16aa\LL	8D/	-nun-	8A\	-nun-	8cc#\	-nun-	.	.
.	16ff#\	.	16aa\	.	.	.	.	.	.	.	.
!	!	!	!	!	!	!	!	!	!LO:MO:mod=ti	!	!
!	!	!	!	!	!	!	!	!LO:SIC:s=8ccn	!	!	!
8D\J	16a\	.	16cc\	8D/	-ti-	8A\	-ti-	8cc#\	-ci-	.	.
.	16a\JJ	.	16cc\JJ	.	.	.	.	.	.	.	.
*Xtremolo	*	*	*	*	*	*	*	*	*	*	*
=60	=60	=60	=60	=60	=60	=60	=60	=60	=60	=60	=60
!	!LO:TX:a:t=P:problem=brak oznaczenia trioli	!	!	!	!	!	!	!	!	!	!
8G\L	12g/L	.	(12b\L	8G\	-a-	8G/L	-a-	8b\L	-a-	.	.
!	!	!	!LO:SIC:s=8ccn	!	!	!	!	!	!	!	!
.	12a/	.	12cc#\	.	.	.	.	.	.	.	.
!	!	!	!	!	!	!	!	!LO:SIC:s=8ccn	!	!	!
8G\	.	.	.	8G\	-bit	8A/J	.	8cc#\J	bit	.	.
.	12b/J	.	12dd\J)	.	.	.	.	.	.	.	.
!	!	!	!LO:SIC:s=4ccn	!	!	!	!	!	!	!	!
8F#X\	4a/	.	4cc#\	4F#\	po-	8B/	-bit	8dd\	po-	.	.
!	!	!	!	!	!	!	!	!LO:SIC:s=4ccn	!	!	!
8F#\	.	.	.	.	.	8A/	po-	4cc#\	-pu-	.	.
8G\	4g/	.	4b\	8G\	-pu-	8G/	-pu-	.	.	.	.
8G\J	.	.	.	8G\	-lo	8G/	-lo	8b\	-lo	.	.
!	!LO:LB:g=original	!	!	!	!	!	!	!	!	!	!
=61	=61	=61	=61	=61	=61	=61	=61	=61	=61	=61	=61
4D\	4g/	.	4b\	4d\	Su-	4G/	Su-	4b\	su-	.	.
!LO:TX:a:t=P:problem=mixed beam	!	!	!	!	!	!	!	!	!	!	!
8D/L	4f#/	.	4a\	4d\	-o	4F#/	-o	4a\	-o	.	.
8d\	.	.	.	.	.	.	.	.	.	.	.
8A\	4r	.	4r	4r	.	4r	.	4r	.	.	.
8F#\J	.	.	.	.	.	.	.	.	.	.	.
=62	=62	=62	=62	=62	=62	=62	=62	=62	=62	=62	=62
*	*	*	*tuplet	*	*	*	*	*	*	*	*
!LO:TX:a:t=P:problem=mixed beam	!	!	!LO:TX:a:t=P:problem=triola z adnotacją	!	!	!	!LO:MO:mod=ut	!	!	!	!
!	!LO:TX:a:t=P:problem=brak oznaczenia trioli	!	!LO:TUP:b	!	!	!	!	!	!	!	!
8D/L	12f#/L	.	(12a\L	8d\	Ut	8F#/	U	8a\	Ut	.	.
.	12g/	.	12b	.	.	.	.	.	.	.	.
!	!	!	!	!	!	!	!	!LO:SIC:s=8ccn	!	!	!
8D/	.	.	.	8d\	det	8A/	det	8cc#\	det	.	.
.	12a/J	.	12ccn/J)	.	.	.	.	.	.	.	.
!	!	!	!	!LO:LB:g=original	!	!	!	!LO:SIC:s=4ccn	!	!	!
8D/	2a/	.	2cc\	4d\	il-	4A/	il-	4cc#\	il-	.	.
8d\	.	.	.	.	.	.	.	.	.	.	.
!	!	!	!	!	!	!	!	!LO:SIC:s=8ccn	!	!	!
8A\	.	.	.	8d\	-lis	8A/	-lis	8cc#\	-lis	.	.
!	!	!	!	!	!	!	!	!	!LO:MO:mod=ae	!	!
!	!	!	!	!	!	!	!LO:MO:mod=ae	!LO:SIC:s=8ccn	!	!	!
8F#\J	.	.	.	8d\	hae-	8A/	he-	8cc#\	he-	.	.
*	*	*	*Xtuplet	*	*	*	*	*	*	*	*
!LO:LB:g=original	!	!	!	!	!	!	!	!	!	!	!
=63	=63	=63	=63	=63	=63	=63	=63	=63	=63	=63	=63
*tremolo	*	*	*	*	*	*	*	*	*	*	*
!	!	!	!	!	!	!	!	!LO:SIC:s=8ccn	!	!	!
!	!LO:TX:a:t=P:problem=brak oznaczenia trioli	!	!	!	!	!	!	!LO:TX:a:t=P:problem=takt słabo czytelny	!	!	!
8D\L	12ccn\L	.	(12aa\L	8D/	-re-	8A\	-re-	8cc#\	-re-	0.r	0.r
.	12b\	.	12gg\	.	.	.	.	.	.	.	.
!	!	!	!	!	!	!	!	!LO:SIC:s=8ccn	!	!	!
8D\	.	.	.	8D/	-di-	8A\	-di-	8cc#\	-di-	.	.
.	12a\J	.	12ff#\J)	.	.	.	.	.	.	.	.
!	!LO:TX:a:t=P:problem=brak oznaczenia trioli	!	!	!	!	!	!	!LO:SIC:s=8ccn	!	!	!
8D\	12cc\L	.	(12ee\L	8D/	-ta-	8A\	-ta-	8cc#\	-ta-	.	.
.	12b\	.	12dd\	.	.	.	.	.	.	.	.
!	!	!	!	!	!	!	!	!LO:SIC:s=8ccn	!	!	!
8D\	.	.	.	8D/	-tem	8A\	-te	8cc#\	-tem	.	.
!	!	!	!LO:SIC:s=8ccn	!	!	!	!	!	!	!	!
.	12a\J	.	12cc#\J)	.	.	.	.	.	.	.	.
!	!LO:TX:a:t=P:problem=brak oznaczenia trioli	!	!LO:SIC:s=8ccn	!	!	!LO:LB:g=original	!	!LO:SIC:s=8ccn	!	!	!
8D\	12a/L	.	(12cc#\L	8D/	gen-	8A\	gen-	8cc#\	gen-	.	.
.	12g/	.	12b\	.	.	.	.	.	.	.	.
8D\J	.	.	.	16D/	-ti-	16G/	-ti-	16b\	-ti-	.	.
.	12f#/J	.	12a\J)	.	.	.	.	.	.	.	.
!	!	!	!	!	!	!	!	!LO:TX:a:t=P:problem=nuta prawie niewidoczna	!	!	!
.	.	.	.	16D/	-um	16F#/	-um	16a\	-um	.	.
!	!	!	!	!	!	!	!	!LO:PB:g=original	!	!	!
*Xtremolo	*	*	*	*	*	*	*	*	*	*	*
=64	=64	=64	=64	=64	=64	=64	=64	=64	=64	=64	=64
!LO:TX:a:t=P:problem=mixed beam	!LO:TX:a:t=P:problem=brak oznaczenia trioli	!	!	!	!	!	!	!	!	!	!
8GG/L	12g/L	.	(12b\L	4G\	O-	4G/	O-	4b\	O-	.	.
!	!	!	!LO:SIC:s=8ccn	!	!	!	!	!	!	!	!
.	12a/	.	12cc#\	.	.	.	.	.	.	.	.
8GG/	.	.	.	.	.	.	.	.	.	.	.
.	12b/J	.	12dd\J)	.	.	.	.	.	.	.	.
8GG/	2b/	.	2dd\	4G\	-pe-	4B\	-pe-	4dd\	-pe-	.	.
8G\	.	.	.	.	.	.	.	.	.	.	.
8BB/	.	.	.	4G\	-ra	4B\	-ra	4dd\	-ra	.	.
8GG/J	.	.	.	.	.	.	.	.	.	.	.
=65	=65	=65	=65	=65	=65	=65	=65	=65	=65	=65	=65
!	!LO:TX:a:t=P:problem=brak oznaczenia trioli	!	!	!	!	!	!	!	!	!	!
*tremolo	*	*	*	*	*	*	*	*	*	*	*
8GG/L	12dd\L	.	(12bb\L	8G\	ma-	8B\	Ma-	8dd\	Ma-	.	.
!	!LO:SIC:s=8ccn	!	!	!	!	!	!	!	!	!	!
.	12cc#\	.	12aa\	.	.	.	.	.	.	.	.
!	!	!	!	!	!LO:MO:mod=nuum	!	!LO:MO:mod=nuum	!	!LO:MO:mod=nuum	!	!
8GG/	.	.	.	8G\	-nu	8B\	-num	8dd\	-num	.	.
.	12b\J	.	12gg\J)	.	.	.	.	.	.	.	.
!	!LO:TX:a:t=P:problem=brak oznaczenia trioli	!	!LO:LB:g=original	!	!	!	!	!	!	!	!
8GG/	12dd\L	.	12ff#\L	8G\	e-	8B\	e-	8dd\	e-	.	.
!	!LO:SIC:s=8ccn	!	!	!	!	!	!	!	!	!	!
.	12cc#\	.	12ee\	.	.	.	.	.	.	.	.
8GG/J	.	.	.	8G\	-jus	8B\	-jus	8dd\	-jus	.	.
.	12b\J	.	12dd\J)	.	.	.	.	.	.	.	.
*Xtremolo	*	*	*	*	*	*	*	*	*	*	*
!	!LO:TX:a:t=P:problem=brak oznaczenia trioli	!	!	!	!	!	!	!	!	!	!
8BB/L	12b\L	.	(12dd\L	8G\	ve-	16B\	Ve-	8dd\	Ve-	.	.
.	.	.	.	.	.	16B\	.	.	.	.	.
.	12a\	.	12ccn\	.	.	.	.	.	.	.	.
!	!	!	!	!	!	!	!	!LO:SIC:s=16ccn	!	!	!
8GG/J	.	.	.	16BB/	-ri-	16A/	-ri-	16cc#\	-ri-	.	.
.	12g\J	.	12b\J)	.	.	.	.	.	.	.	.
.	.	.	.	16GG/	-tas	16G/	-tas	16b\	-tas	.	.
=66	=66	=66	=66	=66	=66	=66	=66	=66	=66	=66	=66
!LO:SIC:s=8Cn	!	!	!	!	!	!	!	!	!	!	!
!LO:TX:a:t=P:problem=mixed beam	!	!	!LO:TX:a:t=P:problem=brak łuku, brak oznaczenia trioli	!	!	!	!	!LO:TX:a:t=P:problem=klamra łukowa	!	!	!
8C#/L	8g/L	.	12ee\L	8C#/	et	8G/	et	(12ee\L	et	.	.
.	.	.	12ccn\	.	.	.	.	12dd\	.	.	.
!LO:SIC:s=8Cn	!	!	!	!	!	!	!	!	!	!	!
8C#/	8e/J	.	.	8C#/	Ju-	8A/	Ju-	.	.	.	.
!	!	!	!	!	!	!	!	!LO:SIC:s=8ccn	!	!	!
.	.	.	12a\J	.	.	.	.	12cc#\J)	Ju-	.	.
8D/	4d/	.	4g/	4D\	-di-	4G/	-di-	4b\	-di-	.	.
8D/	.	.	.	.	.	.	.	.	.	.	.
8DD/	4f#/	.	4a/	4DD/	-ci-	4F#/	-ci-	4a\	-ci-	.	.
8DD/J	.	.	.	.	.	.	.	.	.	.	.
=67	=67	=67	=67	=67	=67	=67	=67	=67	=67	=67	=67
!	!LO:TX:a:t=P:p=pia:problem	!	!LO:TX:a:t=P:problem=mixed beam	!	!	!	!	!	!	!	!
*tremolo	*	*	*	*	*	*	*	*	*	*	*
8GG/L	8g/L	p	8g/L	4GG/	-um	8G/	-um	4g\	-um	0.r	0.r
8GG/	8b/J	.	8dd\J	.	.	8d\	fi-	.	.	.	.
*	*	*	*tremolo	*	*	*	*	*	*	*	*
8GG/	2b\	.	8dd\L	4r	.	4d\	-de-	4r	.	.	.
8GG/	.	.	8dd\	.	.	.	.	.	.	.	.
!	!	!	!	!	!	!LO:SIC:s=8cn	!	!	!	!	!
8GG/	.	.	8dd\	4r	.	8c#\	-li-	4r	.	.	.
8GG/J	.	.	8dd\J	.	.	8B\	-a	.	.	.	.
*	*	*	*Xtremolo	*	*	*	*	*	*	*	*
=68	=68	=68	=68	=68	=68	=68	=68	=68	=68	=68	=68
!	!	!	!	!LO:TX:a:t=10	!	!	!	!LO:N:vis=00	!	!	!
!	!	!	!	!LO:N:vis=00	!	!	!	!	!	!	!
8GG/L	8cc#\L	.	8ee\L	0.r	.	8e\	om-	0.r	.	.	.
8GG/	8a\J	.	8ff#\J	.	.	8f#\	-ni-	.	.	.	.
!	!	!	!	!	!	!LO:TX:a:t=P:problem=niepewny odczyt wysokości	!	!	!	!	!
.	8qqa/	.	8qqff#/	.	.	8qqf#/	.	.	.	.	.
8GG/	2b\	.	2gg\	.	.	2g\	-a	.	.	.	.
8GG/	.	.	.	.	.	.	.	.	.	.	.
8GG/	.	.	.	.	.	.	.	.	.	.	.
8GG/J	.	.	.	.	.	.	.	.	.	.	.
*Xtremolo	*	*	*	*	*	*	*	*	*	*	*
=69	=69	=69	=69	=69	=69	=69	=69	=69	=69	=69	=69
!	!LO:TX:a:t=P:problem=brak oznaczenia trioli	!	!LO:TX:a:t=P:problem=brak łuku	!	!	!LO:TX:a:t=P:problem=brak oznaczenia trioli	!	!	!	!	!
8G\L	12ee\L	.	12gg\L	.	.	12g\L	man-	.	.	.	.
.	12dd\	.	12ff#\	.	.	12f#\	.	.	.	.	.
8G\	.	.	.	.	.	.	.	.	.	.	.
.	12ccn\J	.	12ee\J	.	.	12e\J	.	.	.	.	.
8F#X\	8b/L	.	8dd\L	.	.	8d\L	-da-	.	.	.	.
!	!	!	!LO:SIC:s=8ccn	!	!	!LO:SIC:s=8cn	!	!	!	!	!
8F#\	8a/	.	8cc#\	.	.	8c#\J	.	.	.	.	.
!	!	!	!	!	!	!LO:LB:g=original	!	!	!	!	!
8G\	8g/	.	8b\	.	.	8B\L	-ta	.	.	.	.
8G\J	8b/J	.	8dd\J	.	.	8d\J	.	.	.	.	.
=70	=70	=70	=70	=70	=70	=70	=70	=70	=70	=70	=70
!LO:TX:a:t=P:problem=mixed beam	!	!	!	!	!	!LO:SIC:s=2cn	!	!	!	!	!
.	8qqb/	.	.	.	.	8qqd/	.	.	.	.	.
8F#\L	2a/	.	2ccn\	.	.	2c#\	e-	.	.	.	.
8F#\	.	.	.	.	.	.	.	.	.	.	.
8D\	.	.	.	.	.	.	.	.	.	.	.
8D\	.	.	.	.	.	.	.	.	.	.	.
8G\	4g/	.	4b\	.	.	4B\	-jus	.	.	.	.
8GG/J	.	.	.	.	.	.	.	.	.	.	.
=71	=71	=71	=71	=71	=71	=71	=71	=71	=71	=71	=71
!	!LO:TX:a:t=P:problem=brak oznaczenia trioli	!	!LO:TX:a:t=P:problem=brak łuku	!	!	!LO:TX:a:t=P:problem=brak oznaczenia trioli	!	!	!	!	!
*tremolo	*	*	*	*	*	*	*	*	*	*	*
8G\L	12g/L	.	12b\L	.	.	12B\L	Con-	.	.	0.r	0.r
!	!	!	!	!	!	!LO:SIC:s=8cn	!	!	!	!	!
.	12a/	.	12ccn\	.	.	12c#\	.	.	.	.	.
8G\	.	.	.	.	.	.	.	.	.	.	.
.	12b/J	.	12dd\J	.	.	12d\J	.	.	.	.	.
!	!	!	!LO:SIC:s=8ccn	!	!	!	!	!	!	!	!
.	.	.	8qqdd/	.	.	8qqd/	.	.	.	.	.
8G\	4a/	.	4cc\	.	.	4c#\	-fir-	.	.	.	.
8G\	.	.	.	.	.	.	.	.	.	.	.
8G\	4g/	.	4b\	.	.	4B\	.	.	.	.	.
8G\J	.	.	.	.	.	.	.	.	.	.	.
=72	=72	=72	=72	=72	=72	=72	=72	=72	=72	=72	=72
!	!LO:TX:a:t=P:problem=brak oznaczenia trioli	!	!	!LO:N:vis=00	!	!LO:TX:a:t=P:problem=brak oznaczenia trioli	!	!LO:N:vis=0	!	!	!
8D\L	12f#/L	.	(12a/L	0.r	.	12A\L	-ma-	0.r	.	.	.
.	12g/	.	12b/	.	.	12B\	.	.	.	.	.
8D\	.	.	.	.	.	.	.	.	.	.	.
!	!	!	!LO:SIC:s=8ccn	!	!	!LO:SIC:s=8cn	!	!	!	!	!
.	12a/J	.	12cc#/J)	.	.	12c#\J	.	.	.	.	.
.	8qqa/	.	.	.	.	.	.	.	.	.	.
8D\	4g/	.	4b/	.	.	4B\	-ta	.	.	.	.
8D\	.	.	.	.	.	.	.	.	.	.	.
8D\	4f#/	.	4a/	.	.	4A\	in	.	.	.	.
8D\J	.	.	.	.	.	.	.	.	.	.	.
*Xtremolo	*	*	*	*	*	*	*	*	*	*	*
=73	=73	=73	=73	=73	=73	=73	=73	=73	=73	=73	=73
!	!LO:TX:a:t=P:problem=brak oznaczenia trioli	!	!LO:TX:a:t=P:problem=brak łuku	!	!	!	!LO:MO:mod=sae	!	!	!	!
8G\L	12g/L	.	12b\L	.	.	12B\L	Se-	.	.	.	.
!	!	!	!	!	!	!LO:SIC:s=8cn	!	!	!	!	!
.	12a/	.	12ccn\	.	.	12c#\	.	.	.	.	.
8G\	.	.	.	.	.	.	.	.	.	.	.
.	12b/J	.	12dd\J	.	.	12d\J	.	.	.	.	.
!	!	!	!	!	!	!LO:SIC:s=4cn	!	!	!	!	!
.	.	.	8qqdd/	.	.	.	.	.	.	.	.
8F#X\	4a/	.	4cc\	.	.	4c#\	-cu-	.	.	.	.
8F#\	.	.	.	.	.	.	.	.	.	.	.
8G\	4g/	.	4b\	.	.	4B\	-lum	.	.	.	.
8G\J	.	.	.	.	.	.	.	.	.	.	.
!	!LO:LB:g=original	!	!	!	!	!	!	!	!	!	!
=74	=74	=74	=74	=74	=74	=74	=74	=74	=74	=74	=74
!	!	!	!	!	!	!	!LO:MO:mod=sae	!	!	!	!
.	8qqa/	.	8qqcc#/	.	.	.	.	.	.	.	.
*tremolo	*	*	*	*	*	*	*	*	*	*	*
8D\L	8g/L	.	8b/L	.	.	8B\	Se-	.	.	.	.
8D\	8f#/J	.	8a/J	.	.	8A\	-cu-	.	.	.	.
!	!	!	!LO:SIC:o=8a	!	!	!	!	!	!	!	!
!	!	!	!LO:N:vis=8	!	!	!	!	!	!	!	!
!	!	!	!LO:TX:a:t=P:problem=nieprawidłowa wartość	!	!	!	!	!	!	!	!
8D\	16f#/LL	.	16a/LL	.	.	4A\	-li	.	.	.	.
.	16d/	.	16f#/	.	.	.	.	.	.	.	.
8D\J	16e/	.	16g/	.	.	.	.	.	.	.	.
.	16f#/JJ	.	16a/JJ	.	.	.	.	.	.	.	.
.	8qqf#/	.	.	.	.	.	.	.	.	.	.
*Xtremolo	*	*	*	*	*	*	*	*	*	*	*
8F#\L	8e/L	.	8g/L	.	.	4r	.	.	.	.	.
8D\J	8d/J	.	8f#/J	.	.	.	.	.	.	.	.
=75	=75	=75	=75	=75	=75	=75	=75	=75	=75	=75	=75
!LO:TX:a:t=P:problem=mixed beam	!	!	!	!	!	!	!	!	!	!	!
*	*	*	*tremolo	*	*	*	*	*	*	*	*
8A\L	8cc#X\L	.	8ee\L	.	.	4A\	fac-	.	.	0.r	0.r
8AA/J	8cc#\	.	8ee\	.	.	.	.	.	.	.	.
*tremolo	*	*	*	*	*	*	*	*	*	*	*
8AA/L	8cc#\	.	8ee\	.	.	8c#X\	-ta	.	.	.	.
8AA/	8cc#\	.	8ee\	.	.	8A\	in	.	.	.	.
8AA/	8cc#\	.	8ee\	.	.	8c#\	ve-	.	.	.	.
8AA/J	8cc#\J	.	8ee\J	.	.	8e\	-ri-	.	.	.	.
*	*	*	*Xtremolo	*	*	*	*	*	*	*	*
=76	=76	=76	=76	=76	=76	=76	=76	=76	=76	=76	=76
!	!	!	!	!LO:N:vis=0	!	!	!	!LO:N:vis=00	!	!	!
8C#/L	8ee\L	.	(8gg\L	1.r	.	8g\L	-ta-	0.r	.	.	.
8C#/	8dd\	.	8ff#\J)	.	.	8f#\J	.	.	.	.	.
!	!	!	!LO:LB:g=original	!	!	!	!	!	!	!	!
8C#/	8ee\	.	8gg\L	.	.	8g\	-te	.	.	.	.
8C#/J	8ee\	.	8gg\	.	.	8g\	et	.	.	.	.
*Xtremolo	*	*	*	*	*	*	*	*	*	*	*
8AA/L	8cc#\	.	8ee\	.	.	8g\	e-	.	.	.	.
8AA/J	8a\J	.	8dd\J	.	.	8e\	-qui-	.	.	.	.
!	!	!	!	!	!	!LO:PB:g=original	!	!	!	!	!
=77	=77	=77	=77	=77	=77	=77	=77	=77	=77	=77	=77
!LO:TX:a:t=P:problem=mixed beam	!	!	!	!	!	!LO:TX:a:t=P:problem=brak oznaczenia trioli	!	!	!	!	!
*	*	*	*tremolo	*	*	*	*	*	*	*	*
8D\L	8dd\L	.	8ff#\L	.	.	12f#\L	-ta-	.	.	.	.
.	.	.	.	.	.	12e\	.	.	.	.	.
8D\	8dd\J	.	8ff#\	.	.	.	.	.	.	.	.
.	.	.	.	.	.	12d\J	.	.	.	.	.
8A\	2cc#\	.	8ff#\	.	.	2e\	.	.	.	.	.
8A\	.	.	8ff#\J	.	.	.	.	.	.	.	.
*	*	*	*Xtremolo	*	*	*	*	*	*	*	*
8AA/	.	.	8ee\L	.	.	.	.	.	.	.	.
8AA/J	.	.	8ee\J	.	.	.	.	.	.	.	.
!LO:LB:g=original	!	!	!	!LO:LB:g=original	!	!	!	!	!	!	!
=78	=78	=78	=78	=78	=78	=78	=78	=78	=78	=78	=78
!	!	!	!	!LO:TX:a:t=Solo	!	!	!	!	!	!	!
4D\	4d/ 4a 4ff#	.	4d/ 4a 4ff#	8r	.	8d\	-te	.	.	.	.
.	.	.	.	8D\	Re-	8r	.	.	.	.	.
4r	4r	.	4r	8F#\	-dem-	2r	.	.	.	.	.
.	.	.	.	8A\	-pti-	.	.	.	.	.	.
4r	4r	.	4r	8d\	-o-	.	.	.	.	.	.
.	.	.	.	8A\	-nem	.	.	.	.	.	.
=79	=79	=79	=79	=79	=79	=79	=79	=79	=79	=79	=79
!	!	!	!	!	!	!LO:N:vis=00	!	!	!	!	!
4r	4r	.	4r	8F#\	mi-	0.r	.	.	.	0.r	0.r
.	.	.	.	8D\	-sit	.	.	.	.	.	.
!	!LO:SIC:s=8ccn	!	!	!	!	!	!	!	!	!	!
8F#\L	8cc#\L	.	8aa\L	4cn\	po-	.	.	.	.	.	.
!	!LO:SIC:s=8ccn	!	!	!	!	!	!	!	!	!	!
8F#\	8cc#\	.	8aa\	.	.	.	.	.	.	.	.
8G\	8b\	.	8gg\	8B\	-pu-	.	.	.	.	.	.
8G\J	8b\J	.	8gg\J	8B\	-lo	.	.	.	.	.	.
=80	=80	=80	=80	=80	=80	=80	=80	=80	=80	=80	=80
!	!	!	!	!	!	!	!	!LO:N:vis=00	!	!	!
8D\L	8b/L	.	8gg\L	2B\	Su-	.	.	0.r	.	.	.
8D\	8b/J	.	8gg\	.	.	.	.	.	.	.	.
8D\	2a/	.	8ff#\	.	.	.	.	.	.	.	.
8d\	.	.	8ff#\	.	.	.	.	.	.	.	.
8A\	.	.	8ff#\	4A\	-o	.	.	.	.	.	.
8F#\J	.	.	8ff#\J	.	.	.	.	.	.	.	.
=81	=81	=81	=81	=81	=81	=81	=81	=81	=81	=81	=81
4D\	4d/ 4a 4ff#	.	4d/ 4a 4ff#	8r	.	.	.	.	.	.	.
.	.	.	.	8D\	Re-	.	.	.	.	.	.
4r	4r	.	4r	8F#\	-dem-	.	.	.	.	.	.
.	.	.	.	8A\	-pti-	.	.	.	.	.	.
4r	4r	.	4r	8d\	-o-	.	.	.	.	.	.
.	.	.	.	8A\	-nem	.	.	.	.	.	.
=82	=82	=82	=82	=82	=82	=82	=82	=82	=82	=82	=82
4r	4r	.	4r	8F#\	mi-	.	.	.	.	.	.
.	.	.	.	8D\	-sit	.	.	.	.	.	.
!	!LO:SIC:s=8ccn	!	!	!	!	!	!	!	!	!	!
8F#\L	8cc#\L	.	8aa\L	4cn\	po-	.	.	.	.	.	.
!	!LO:SIC:s=8ccn	!	!	!	!	!	!	!	!	!	!
8F#\	8cc#\	.	8aa\	.	.	.	.	.	.	.	.
8G\	8b\	.	8gg\	8B\	-pu-	.	.	.	.	.	.
8G\J	8b\J	.	8gg\J	8B\	-lo	.	.	.	.	.	.
=83	=83	=83	=83	=83	=83	=83	=83	=83	=83	=83	=83
!	!	!	!	!	!	!LO:N:vis=00	!	!	!	!	!
*tremolo	*tremolo	*	*tremolo	*	*	*	*	*	*	*	*
8D/L	8b/L	.	8gg\L	2B\	Su-	0.r	.	.	.	0.r	0.r
8D/	8b/	.	8gg\	.	.	.	.	.	.	.	.
8D/	8b/	.	8gg\	.	.	.	.	.	.	.	.
8D/J	8b/J	.	8gg\J	.	.	.	.	.	.	.	.
*Xtremolo	*Xtremolo	*	*Xtremolo	*	*	*	*	*	*	*	*
8BB/L	8a/L	.	8ff#\L	4A\	-o	.	.	.	.	.	.
8GG/J	8a/J	.	8ff#\J	.	.	.	.	.	.	.	.
=84	=84	=84	=84	=84	=84	=84	=84	=84	=84	=84	=84
!	!	!	!	!	!	!	!	!LO:N:vis=00	!	!	!
*tremolo	*tremolo	*	*tremolo	*	*	*	*	*	*	*	*
8GG/L	8b/L	.	8dd\L	4G\	Man-	.	.	0.r	.	.	.
8GG/	8b/	.	8dd\	.	.	.	.	.	.	.	.
8GG/	8b/	.	8dd\	8B\	-da-	.	.	.	.	.	.
8GG/	8b/	.	8dd\	8G\	-vit	.	.	.	.	.	.
8GG/	8b/	.	8dd\	8D\	in	.	.	.	.	.	.
8GG/J	8b/J	.	8dd\J	8Fn\	ae-	.	.	.	.	.	.
!	!	!	!	!LO:LB:g=original	!	!	!	!	!	!	!
=85	=85	=85	=85	=85	=85	=85	=85	=85	=85	=85	=85
!LO:SIC:s=2Cn	!	!	!	!LO:SIC:s=q8Fn	!	!	!	!	!	!	!
.	.	.	.	8qqF#/	.	.	.	.	.	.	.
8C#/L	8ccn\L	.	8ee\L	4E\	-ter-	.	.	.	.	.	.
8C#/	8ccn\	.	8ee\	.	.	.	.	.	.	.	.
8C#/	8ccn\	.	8ee\	2E\	-num	.	.	.	.	.	.
8C#/	8ccn\	.	8ee\	.	.	.	.	.	.	.	.
8C#/	8ccn\	.	8ee\	.	.	.	.	.	.	.	.
8C#/J	8ccn\J	.	8ee\J	.	.	.	.	.	.	.	.
=86	=86	=86	=86	=86	=86	=86	=86	=86	=86	=86	=86
8AA/L	8cc#X\L	.	8ee\L	4A\	Man-	.	.	.	.	.	.
8AA/	8cc#X\	.	8ee\	.	.	.	.	.	.	.	.
8AA/	8cc#X\	.	8ee\	8c#\	-da-	.	.	.	.	.	.
8AA/	8cc#X\	.	8ee\	8A\	-vit	.	.	.	.	.	.
8AA/	8cc#X\	.	8ee\	8E\	in	.	.	.	.	.	.
8AA/J	8cc#X\J	.	8ee\J	8G\	ae-	.	.	.	.	.	.
=87	=87	=87	=87	=87	=87	=87	=87	=87	=87	=87	=87
.	.	.	.	8qqG/	.	.	.	.	.	.	.
!	!	!	!	!	!	!LO:N:vis=00	!	!	!	!	!
8D\L	8a/L	.	8ff#\L	4F#\	-ter-	0.r	.	.	.	0.r	0.r
8D\	8a/	.	8ff#\	.	.	.	.	.	.	.	.
8D\	8a/	.	8ff#\	2F#\	-num	.	.	.	.	.	.
8D\	8a/	.	8ff#\	.	.	.	.	.	.	.	.
8D\	8a/	.	8ff#\	.	.	.	.	.	.	.	.
8D\J	8a/J	.	8ff#\J	.	.	.	.	.	.	.	.
*	*	*	*Xtremolo	*	*	*	*	*	*	*	*
=88	=88	=88	=88	=88	=88	=88	=88	=88	=88	=88	=88
!	!LO:SIC:s=2ccn	!	!	!LO:SIC:s=4.cn	!	!	!	!LO:N:vis=00	!	!	!
8D\L	8cc#\L	.	8aa\L	4.c#\	Tes-	.	.	0.r	.	.	.
8D\	8cc#\	.	8aa\	.	.	.	.	.	.	.	.
8D\	8cc#\	.	8aa\	.	.	.	.	.	.	.	.
!	!	!	!	!LO:SIC:s=8cn	!	!	!	!	!	!	!
8D\	8cc#\J	.	8aa\	8c#\	-ta-	.	.	.	.	.	.
*	*Xtremolo	*	*	*	*	*	*	*	*	*	*
8D\	8b/L	.	8gg\	8B\	-men-	.	.	.	.	.	.
8D\J	8a/J	.	8ff#\J	8A\	-tu(m)	.	.	.	.	.	.
*Xtremolo	*	*	*	*	*	*	*	*	*	*	*
!	!LO:LB:g=original	!	!	!	!	!	!	!	!	!	!
=89	=89	=89	=89	=89	=89	=89	=89	=89	=89	=89	=89
!LO:TX:a:t=P:problem=mixed beam	!	!	!	!	!	!	!	!	!	!	!
8GG/L	8b\L	.	8gg\L	8B\L	Su-	.	.	.	.	.	.
!	!	!	!	!LO:SIC:s=8cn	!	!	!	!	!	!	!
8G\	8cc#\J	.	8aa\J	8c#\J	.	.	.	.	.	.	.
.	.	.	.	8qqc#/	.	.	.	.	.	.	.
*	*tremolo	*	*tremolo	*	*	*	*	*	*	*	*
8D\	8dd\L	.	8bb\L	2d\	-um	.	.	.	.	.	.
8G\	8dd\	.	8bb\	.	.	.	.	.	.	.	.
8BB/	8dd\	.	8bb\	.	.	.	.	.	.	.	.
8GG/J	8dd\J	.	8bb\J	.	.	.	.	.	.	.	.
=90	=90	=90	=90	=90	=90	=90	=90	=90	=90	=90	=90
!	!LO:SIC:s=2ccn	!	!	!LO:SIC:s=4.cn	!	!	!	!	!	!	!
*tremolo	*	*	*	*	*	*	*	*	*	*	*
8D\L	8cc#\L	.	8aa\L	4.c#\	{Tes-	.	.	.	.	.	.
8D\	8cc#\	.	8aa\	.	.	.	.	.	.	.	.
8D\	8cc#\	.	8aa\	.	.	.	.	.	.	.	.
!	!	!	!	!LO:SIC:s=8cn	!	!	!	!	!	!	!
8D\	8cc#\J	.	8aa\J	8c#\	-ta-	.	.	.	.	.	.
*	*Xtremolo	*	*Xtremolo	*	*	*	*	*	*	*	*
8D\	8b\L	.	8gg\L	8B\	-men-	.	.	.	.	.	.
8D\J	8a\J	.	8ff#\J	8A\	-tum}	.	.	.	.	.	.
*Xtremolo	*	*	*	*	*	*	*	*	*	*	*
!	!	!	!LO:LB:g=original	!	!	!	!	!	!	!	!
=91	=91	=91	=91	=91	=91	=91	=91	=91	=91	=91	=91
4GG/	4b\	.	4gg\	8B\	Tes-	2.r	.	.	.	0.r	0.r
.	.	.	.	8F#\	-ta-	.	.	.	.	.	.
8r	8r	.	8r	8G\	-men-	.	.	.	.	.	.
!LO:SIC:s=8Cn	!	!	!LO:TX:a:t=P:problem=mixed beam	!	!	!	!	!	!	!	!
8C#/L	8ccn\	.	8ccn/L	8E\	-tum	.	.	.	.	.	.
!	!LO:TX:a:t=P:problem=mixed beam	!	!	!	!	!	!	!	!	!	!
8D/	8dd\L	.	8dd/	4D\	Su-	.	.	.	.	.	.
8DD/J	8d/J	.	8d/J	.	.	.	.	.	.	.	.
=92	=92	=92	=92	=92	=92	=92	=92	=92	=92	=92	=92
!	!LO:TX:a:t=P:problem=mixed beam	!	!	!	!	!	!	!	!	!	!
8GG/L	8G/L	.	16G/LL	4GG/	-um	4B\	San-	4dd\	San-	.	.
.	.	.	16g/	.	.	.	.	.	.	.	.
8GG/	8b\J	.	16a/	.	.	.	.	.	.	.	.
.	.	.	16b/JJ	.	.	.	.	.	.	.	.
!	!	!	!LO:SIC:s=16ccn	!	!	!	!	!	!	!	!
*	*tremolo	*	*	*	*	*	*	*	*	*	*
8GG/	8b/L	.	16cc#\LL	8G\	San-	4B\	-ctum	4dd\	-ctum	.	.
.	.	.	16dd\	.	.	.	.	.	.	.	.
8GG/	8b/	.	16ee\	8G\	-ctu(m)	.	.	.	.	.	.
.	.	.	16ff#\JJ	.	.	.	.	.	.	.	.
!	!	!	!	!LO:LB:g=original	!	!	!	!	!	!	!
!	!	!	!	!	!LO:MO:mod=et	!	!LO:MO:mod=et	!	!LO:MO:mod=et	!	!
8GG/	8b/	.	8gg\L	8G\	e	8B\	e	8dd\	e	.	.
!	!	!	!	!	!LO:MO:mod=ter	!	!LO:MO:mod=ter	!	!LO:MO:mod=ter	!	!
8GG/J	8b/J	.	8dd\J	8G\	te-	8B\	te-	8dd\	te-	.	.
=93	=93	=93	=93	=93	=93	=93	=93	=93	=93	=93	=93
*tremolo	*	*	*	*	*	*	*	*	*	*	*
8GG/L	8cc#\L	.	16ee\LL	4G\	-ri-	4cn\	-ri-	4ee\	-ri-	.	.
.	.	.	16ccn\	.	.	.	.	.	.	.	.
8GG/	8cc#\	.	16cc\	.	.	.	.	.	.	.	.
.	.	.	16ee\JJ	.	.	.	.	.	.	.	.
8GG/	8cc#\	.	16ff#\LL	4G\	-bi-	4c\	-bi-	4ee\	-bi-	.	.
.	.	.	16gg\	.	.	.	.	.	.	.	.
8GG/	8cc#\	.	16aa\	.	.	.	.	.	.	.	.
.	.	.	16bb\JJ	.	.	.	.	.	.	.	.
!	!	!	!LO:SIC:s=8cccn	!	!	!	!	!	!	!	!
8GG/	8cc#\	.	8ccc#`\L	4G\	-le	4c\	-le	4ee\	-le	.	.
8GG/J	8cc#\J	.	8ee`\J	.	.	.	.	.	.	.	.
*Xtremolo	*	*	*	*	*	*	*	*	*	*	*
!LO:PB:g=original	!	!	!	!	!	!	!	!	!	!	!
=94	=94	=94	=94	=94	=94	=94	=94	=94	=94	=94	=94
.	.	.	.	.	.	8qqc#/	.	.	.	.	.
8GG/L	8b\L	.	16dd\LL	2G\	No-	2B\	no-	2dd\	No-	.	.
.	.	.	16b\	.	.	.	.	.	.	.	.
!	!	!	!LO:SIC:s=16ccn	!	!	!	!	!	!	!	!
8GG/	8b\	.	16cc#\	.	.	.	.	.	.	.	.
.	.	.	16dd\JJ	.	.	.	.	.	.	.	.
8GG/	8b\	.	16ee\LL	.	.	.	.	.	.	.	.
.	.	.	16ff#\	.	.	.	.	.	.	.	.
8GG/	8b\	.	16gg\	.	.	.	.	.	.	.	.
.	.	.	16aa\JJ	.	.	.	.	.	.	.	.
8GG/	8b\	.	8bb`\L	4G\	-men	4B\	-men	4dd\	-men	.	.
8GG/J	8b\J	.	8dd`\J	.	.	.	.	.	.	.	.
=95	=95	=95	=95	=95	=95	=95	=95	=95	=95	=95	=95
!	!	!	!LO:SIC:s=16ccn	!	!	!	!	!	!	!	!
8D\L	8a\L	.	16cc#`\LL	4D\	e-	4A/	e-	4ccn\	e-	1.r	1.r
.	.	.	16a\	.	.	.	.	.	.	.	.
8D\	8a\	.	16b\	.	.	.	.	.	.	.	.
!	!	!	!LO:SIC:s=16ccn	!	!	!	!	!	!	!	!
.	.	.	16cc#\JJ	.	.	.	.	.	.	.	.
8D\	8a\	.	16dd\LL	8D\	-jus	8A/	-jus	8cc\	-jus	.	.
.	.	.	16ee\	.	.	.	.	.	.	.	.
!	!	!	!	!	!LO:MO:mod=i	!	!LO:MO:mod=i	!	!LO:MO:mod=i	!	!
8D\	8a\	.	16ff#\	8D\	J-	8A/	J-	8cc\	J-	.	.
.	.	.	16gg`\JJ	.	.	.	.	.	.	.	.
8D\	8a\	.	8aa`\L	8D\	-ni-	8A/	-ni-	8cc\	-ni-	.	.
!	!	!	!LO:SIC:s=8ccn	!	!	!	!	!	!	!	!
8D\J	8a\J	.	8cc#`\J	16D\	-ti-	8A/	-tium	16cc\	-ti-	.	.
.	.	.	.	16D\	-um	.	.	16cc\	-um	.	.
*	*Xtremolo	*	*	*	*	*	*	*	*	*	*
=96	=96	=96	=96	=96	=96	=96	=96	=96	=96	=96	=96
!LO:TX:a:t=P:problem=mixed beam	!	!	!LO:TX:a:t=P:problem=mixed beam	!LO:TX:a:t=P:problem=mixed beam	!	!	!	!	!	!	!
8GG/L	16g/LL	.	16b/LL	8GG/L	Sa-	8G/L	Sa-	(8b\L	Sa-	.	.
.	16g/	.	16b/	.	.	.	.	.	.	.	.
8G\	16b/	.	16gg\	8G\J	.	8B/J	.	8dd\J)	.	.	.
.	16b/JJ	.	16gg\JJ	.	.	.	.	.	.	.	.
!	!	!	!	!	!	!	!	!LO:LB:g=original	!	!	!
8G\	16b\LL	.	16gg\LL	4G\	-pi-	4A/	pi-	4ccn\	-pi-	.	.
.	16b\	.	16gg\	.	.	.	.	.	.	.	.
8G\	16b\	.	16dd\	.	.	.	.	.	.	.	.
.	16b\JJ	.	16dd\JJ	.	.	.	.	.	.	.	.
!	!	!	!LO:SIC:s=16ccn	!	!	!	!	!	!	!	!
8F#\	16a/LL	.	16cc#\LL	8F#\L	-en-	4G/	-en-	4b\	-en-	.	.
!	!	!	!LO:SIC:s=16ccn	!	!	!	!	!	!	!	!
.	16a/	.	16cc#\	.	.	.	.	.	.	.	.
8F#\J	16g/	.	16b\	8G\J	.	.	.	.	.	.	.
.	16g/JJ	.	16b\JJ	.	.	.	.	.	.	.	.
=97	=97	=97	=97	=97	=97	=97	=97	=97	=97	=97	=97
!LO:TX:a:t=P:problem=mixed beam	!	!	!	!	!	!	!	!	!	!	!
8d\L	4g/	.	4b/	8d\	-ti-	8G/	-ti-	8b\	-ti-	2.r	2.r
8D/J	.	.	.	8D/	.	8F#/	.	8a\	.	.	.
8F#\L	4f#/	.	4a/	4D/	-ae	4G/	-ae	4a\	-ae	.	.
8A\	.	.	.	.	.	.	.	.	.	.	.
8F#\	4r	.	4r	4r	.	4r	.	4r	.	.	.
8D\J	.	.	.	.	.	.	.	.	.	.	.
=98	=98	=98	=98	=98	=98	=98	=98	=98	=98	=98	=98
4AA/	4cc#\	.	4ee\	4A\	Ti-	4c#X\	Ti-	4ee\	Ti-	4a/	4ee\
4r	16r	.	16r	4A\	-mor	4c#\	-mor	4ee\	-mor	4r	4r
.	16cc#\LL	.	16ee'\LL	.	.	.	.	.	.	.	.
.	16cc#\	.	16ee'\	.	.	.	.	.	.	.	.
.	16cc#\JJ	.	16ee'\JJ	.	.	.	.	.	.	.	.
!	!	!	!LO:LB:g=original	!	!	!	!	!	!	!	!
4AA/	8b\L	.	8dd\L	4r	.	4r	.	4r	.	4r	4r
.	8a\J	.	8cc#\J	.	.	.	.	.	.	.	.
!	!	!	!	!	!	!LO:LB:g=original	!	!	!	!	!
=99	=99	=99	=99	=99	=99	=99	=99	=99	=99	=99	=99
4D\	4dd\	.	4ff#\	4d\	{Ti-	4d\	{Ti-	4ff#\	{Ti-	4dd\	4ff#\
4r	16r	.	16r	4D/	-mor}	4d\	-mor}	4ff#\	-mor}	4r	4r
.	16dd\LL	.	16ff#'\LL	.	.	.	.	.	.	.	.
.	16dd\	.	16ff#'\	.	.	.	.	.	.	.	.
.	16dd\JJ	.	16ff#'\JJ	.	.	.	.	.	.	.	.
4D\	8cc#\L	.	8ee\L	4r	.	4r	.	4r	.	4r	4r
.	8b\J	.	8dd\J	.	.	.	.	.	.	.	.
=100	=100	=100	=100	=100	=100	=100	=100	=100	=100	=100	=100
4AA/	4ee\	.	4gg\	4A\	{Ti-	4e\	{Ti-	4gg\	Ti-	4ee\	4gg\
4r	16r	.	16r	4AA/	-mor}	4e\	-mor}	4gg\	-mor	4r	4r
.	16ee\LL	.	16gg'\LL	.	.	.	.	.	.	.	.
.	16ee\	.	16gg'\	.	.	.	.	.	.	.	.
.	16ee\JJ	.	16gg'\JJ	.	.	.	.	.	.	.	.
4AA/	8dd\L	.	8ff#\L	4r	.	4r	.	4r	.	4ee\	4r
.	8cc#\J	.	8ee\J	.	.	.	.	.	.	.	.
!	!	!	!	!LO:LB:g=original	!	!	!	!	!	!	!
=101	=101	=101	=101	=101	=101	=101	=101	=101	=101	=101	=101
!LO:TX:a:t=P:problem=mixed beam	!	!	!	!	!	!	!	!LO:TX:a:t=P:problem=brak ozanaczenia trioli	!	!	!
8D\L	8dd\L	.	(12ff#\L	4D\	Do-	4d\	Do-	12ff#\L	Do-	4dd\	4ff#\
.	.	.	12ee\	.	.	.	.	12ee\	.	.	.
8D\	8dd\	.	.	.	.	.	.	.	.	.	.
.	.	.	12dd\J)	.	.	.	.	12dd\J	.	.	.
.	.	.	8qqdd/	.	.	.	.	.	.	.	.
8A\	8dd\	.	2ee\	4A\	.	4.c#\	.	4.ee\	.	4a/	4ee\
8A\	8dd\J	.	.	.	.	.	.	.	.	.	.
8AA/	8cc#\L	.	.	4AA/	-mi-	.	.	.	.	4a/	4ee\
8AA/J	8cc#\J	.	.	.	.	8c#\	-mi-	8ee\	-mi-	.	.
!	!LO:LB:g=original	!	!	!	!	!	!	!	!	!LO:LB:g=original	!
=102	=102	=102	=102	=102	=102	=102	=102	=102	=102	=102	=102
*	*	*	*	*	*	*	*	*	*	*	*tremolo
8D\L	16dd\LL	.	16dd\LL	4D\	-ni	4d\	-ni	4dd\	-ni	8dd\L	8ff#\L
.	16dd\	.	16dd\	.	.	.	.	.	.	.	.
8D\	16aa\	.	16ddd\	.	.	.	.	.	.	8dd\	8ff#\
.	16aa\JJ	.	16ddd\JJ	.	.	.	.	.	.	.	.
!	!	!	!	!	!LO:MO:mod=i	!	!LO:MO:mod=i	!	!	!	!
8D\	16ff#\LL	.	16aa\LL	8D\	Jn-	8A\	Jn-	8ff#\	in-	8dd\	8ff#\
.	16ff#\	.	16aa\	.	.	.	.	.	.	.	.
8D\	16dd\	.	16ff#\	8D\	-tel-	8A\	-tel-	8ff#\	-tel-	8dd\	8ff#\
.	16dd\JJ	.	16ff#\JJ	.	.	.	.	.	.	.	.
8D\	16a\LL	.	16dd\LL	8D\	-lec-	8A\	-lec-	8ff#\	-lec-	8dd\	8ff#\
.	16a\	.	16dd\	.	.	.	.	.	.	.	.
8D\J	16ff#\	.	16aa\	8D\	-tus	8A\	-tus	8ff#\	-tus	8dd\J	8ff#\J
.	16ff#\JJ	.	16aa\JJ	.	.	.	.	.	.	.	.
*	*	*	*	*	*	*	*	*	*	*	*Xtremolo
=103	=103	=103	=103	=103	=103	=103	=103	=103	=103	=103	=103
*tremolo	*	*	*	*	*	*	*	*	*	*	*
8D\L	16gg\LL	.	16bb\LL	8D\	bo-	8B\	bo-	8gg\	bo-	4dd\	4gg\
.	16gg\	.	16bb\	.	.	.	.	.	.	.	.
8D\	16bb\	.	16ddd\	8D\	-nus	8B\	-nus	8gg\	-nus	.	.
.	16bb\JJ	.	16ddd\JJ	.	.	.	.	.	.	.	.
8D\	16ff#\LL	.	16bb\LL	8D\	Om-	8B\	om-	8gg\	om-	8r	8r
.	16ff#\	.	16bb\	.	.	.	.	.	.	.	.
8D\	16dd\	.	16gg\	16D\	-ni-	16B\	-ni-	16gg\	-ni-	8dd\L	8gg\L
!	!	!	!	!LO:TX:a:t=P:problem=powtórzenie dwóch sylab	!	!	!	!	!	!	!
.	16dd\JJ	.	16gg\JJ	16D\	-bus faci	16B\	-bus	16gg\	-bus	.	.
8D\	16b\LL	.	16dd\LL	8D\	fa-	8B\	fa-	8gg\	fa-	8dd\	8gg\
.	16b\	.	16dd\	.	.	.	.	.	.	.	.
8D\J	16gg\	.	16bb\	8D\	-ci-	8B\	-ci-	8gg\	-ci-	8dd\J	8gg\J
.	16gg\JJ	.	16bb\JJ	.	.	.	.	.	.	.	.
=104	=104	=104	=104	=104	=104	=104	=104	=104	=104	=104	=104
8D\L	16ff#\LL	.	16aa\LL	16D\	-en-	8A\	-en-	8ff#\	-en-	4dd\	4ff#\
.	16ff#\	.	16aa\	16D\	-ti-	.	.	.	.	.	.
8D\	16aa\	.	16ddd\	8D\	-bus	16A\	-ti-	16ff#\	-ti-	.	.
.	16aa\JJ	.	16ddd\JJ	.	.	16A\	-bus	16ff#\	-bus	.	.
8D\	16ff#\LL	.	16aa\LL	8D\	e-	8A\	e-	8ff#\	e-	8r	8r
.	16ff#\	.	16aa\	.	.	.	.	.	.	.	.
8D\	16dd\	.	16ff#\	16D\	-um	16A\	-um	16ff#\	-um	8dd\L	8ff#\L
.	16dd\JJ	.	16ff#\JJ	16D\	Lau-	16A\	Lau-	16ff#\	Lau-	.	.
!	!	!	!	!	!	!	!	!LO:LB:g=original	!	!	!
8D\	16a\LL	.	16dd\LL	8D\	-da-	8A\	-da-	8ff#\	-da-	8dd\	8ff#\
.	16a\	.	16dd\	.	.	.	.	.	.	.	.
8D\J	16ff#\	.	16aa\	16D\	-ti-	16A\	-ti-	16ff#\	-ti-	8dd\J	8ff#\J
.	16ff#\JJ	.	16aa\JJ	16D\	-o	16A\	-o	16ff#\	-o	.	.
=105	=105	=105	=105	=105	=105	=105	=105	=105	=105	=105	=105
!	!LO:TX:a:t=P:problem=mixed beam	!	!LO:TX:a:t=P:problem=mixed beam	!	!	!	!	!	!	!	!
8AA/L	16d/LL	.	16a/LL	8A\	e-	8G/	e-	8ee\	E-	4a/	4ee\
.	16d/	.	16a/	.	.	.	.	.	.	.	.
8AA/	16ee\	.	16gg\	8A\	-jus	8G/	-jus	8ee\	-jus	.	.
.	16ee\JJ	.	16gg\JJ	.	.	.	.	.	.	.	.
8AA/	16cc#\LL	.	16ee\LL	4A\	ma-	4G/	ma-	4ee\	ma-	8r	8r
.	16cc#\	.	16ee\	.	.	.	.	.	.	.	.
8AA/	16a\	.	16cc#\	.	.	.	.	.	.	8a/	8ee\L
.	16a\JJ	.	16cc#\JJ	.	.	.	.	.	.	.	.
!	!LO:TX:a:t=P:problem=mixed beam	!	!LO:TX:a:t=P:problem=mixed beam	!	!	!	!	!	!	!	!
8AA/	16e/LL	.	16a/LL	8A\	-net	8G/	-net	8ee\	-net	8ee\L	8gg\
.	16e/	.	16a/	.	.	.	.	.	.	.	.
8AA/J	16ee\	.	16gg\	8A\	in	8G/	in	8ee\	in	8ee\J	8gg\J
.	16ee\JJ	.	16gg\JJ	.	.	.	.	.	.	.	.
*Xtremolo	*	*	*	*	*	*	*	*	*	*	*
!	!	!	!	!	!	!LO:LB:g=original	!	!	!	!	!
=106	=106	=106	=106	=106	=106	=106	=106	=106	=106	=106	=106
!LO:TX:a:t=P:problem=mixed beam	!	!	!	!	!LO:MO:mod=sae	!	!LO:MO:mod=sae	!	!LO:MO:mod=sae	!	!
8D\L	8dd\L	.	(8ff#\L	8d\	Se-	16F#/	Se-	8dd\	Se-	8dd\L	8ff#\L
.	.	.	.	.	.	16G/	-cu-	.	.	.	.
8D\	8b\J	.	16gg\L)	16d\	-cu-	8G/	-lum	16ee\	-cu-	8ee\J	8gg\J
.	.	.	16ee\JJ	16d\	-lum	.	.	16ee\	-lum	.	.
!	!	!	!	!LO:LB:g=original	!	!	!	!	!	!	!
!	!	!	!	!	!LO:MO:mod=sae	!	!LO:MO:mod=sae	!	!LO:MO:mod=sae	!	!
8A\	4a\	.	(4dd\	4A\	Se-	4F#/	Se-	4dd\	Se-	4dd\	4ff#\
8A\	.	.	.	.	.	.	.	.	.	.	.
8AA/	4cc#\	.	4ee\)	4AA/	-cu-	4E/	-cu-	4cc#\	-cu-	4a/	4ee\
8AA/J	.	.	.	.	.	.	.	.	.	.	.
!	!	!	!LO:LB:g=original	!	!	!	!	!	!	!	!
=107	=107	=107	=107	=107	=107	=107	=107	=107	=107	=107	=107
!	!LO:TX:a:t=P:problem=mixed beam	!	!LO:TX:a:t=P:problem=mixed beam	!	!	!	!	!	!	!	!
*tremolo	*	*	*	*	*	*	*	*	*	*	*
8D\L	16d/LL	.	16d/LL	4d\	-li	4F#/	-li	4dd\	-li	4dd\	4ff#\
.	16dd\	.	16dd\	.	.	.	.	.	.	.	.
8D\	16ee\	.	16ee\	.	.	.	.	.	.	.	.
.	16ff#\JJ	.	16ff#\JJ	.	.	.	.	.	.	.	.
8D\	16gg\LL	.	16gg\LL	4d\	Glo-	4A/	Glo-	8ff#\	Glo-	8r	8r
.	16aa\	.	16aa\	.	.	.	.	.	.	.	.
8D\	16bb\	.	16bb\	.	.	.	.	8ff#\	-ri-	8ff#\L	8aa\L
.	16ccc#\JJ	.	16ccc#\JJ	.	.	.	.	.	.	.	.
8D\	8ddd\L	.	8ddd\L	8d\	-ri-	8A\	-ri-	4ff#\	-a	8ff#\	8aa\
8D\J	8ff#\J	.	8aa\J	8d\	-a	8A\	-a	.	.	8ff#\J	8aa\J
!LO:LB:g=original	!	!	!	!	!	!	!	!	!	!	!
=108	=108	=108	=108	=108	=108	=108	=108	=108	=108	=108	=108
8D\L	8gg\L	.	8bb\L	4d\	Pat-	8B/L	Pat-	8gg\L	Pat-	8gg\L	8bb\L
8D\	8ee\J	.	8gg\J	.	.	8G/J	.	8ee\J	.	8ee\J	8gg\J
.	8qqee/	.	8qqgg/	.	.	8qqG/	.	8qqee/	.	.	.
8D\	2ff#\	.	2aa\	2d\	-ri	2A/	-ri	2ff#\	-ri	8r	8r
8D\	.	.	.	.	.	.	.	.	.	8ff#\L	8aa\L
8D\	.	.	.	.	.	.	.	.	.	8ff#\	8aa\
8D\J	.	.	.	.	.	.	.	.	.	8ff#\J	8aa\J
!	!	!	!	!	!	!	!	!	!	!	!LO:LB:g=original
=109	=109	=109	=109	=109	=109	=109	=109	=109	=109	=109	=109
!	!LO:TX:a:t=P:problem=mixed beam	!	!LO:TX:a:t=P:problem=mixed beam	!	!	!	!	!	!	!	!
8D\L	16d/LL	.	16d/LL	4D\	glo-	4A/	glo-	4ff#\	glo-	4dd\	8bb\L
.	16dd\	.	16dd\	.	.	.	.	.	.	.	.
8D\	16ee\	.	16ee\	.	.	.	.	.	.	.	8gg\J
.	16ff#\JJ	.	16ff#\JJ	.	.	.	.	.	.	.	.
8D\	16gg\LL	.	16gg\LL	4D\	-ri-	4A/	-ri-	4ff#\	-ri-	8r	8r
.	16aa\	.	16aa\	.	.	.	.	.	.	.	.
8D\	16bb\	.	16bb\	.	.	.	.	.	.	8ff#\L	8aa\L
.	16ccc#\JJ	.	16ccc#\JJ	.	.	.	.	.	.	.	.
8D\	8ddd\L	.	8ddd\L	4D\	-a	4A/	-a	4ff#\	-a	8ff#\	8aa\
8D\J	8ff#\J	.	8aa\J	.	.	.	.	.	.	8ff#\J	8aa\J
*Xtremolo	*	*	*	*	*	*	*	*	*	*	*
!	!LO:LB:g=original	!	!	!	!	!	!	!	!	!	!
=110	=110	=110	=110	=110	=110	=110	=110	=110	=110	=110	=110
!LO:TX:a:t=P:problem=mixed beam	!	!	!	!	!	!	!	!	!	!LO:TX:a:t=P:problem=mixed beam	!
8AA/L	8ee\L	.	8gg\L	8A\	fi-	8G/	fi-	8ee\	fi-	8ee\L	8gg\L
8AA/	8cc#\J	.	8ee\J	8AA/	-li-	8E/	-li-	8cc#\	-li-	8a/J	8ee\J
.	8qqcc#/	.	8qqee/	.	.	8qqE/	.	8qqcc#/	.	.	.
8D/	2dd\	.	2ff#\	2D/	-o	2F#/	-o	2dd\	-o	8dd\L	8ff#\L
8d\	.	.	.	.	.	.	.	.	.	16dd\L	16ff#\L
.	.	.	.	.	.	.	.	.	.	16dd\JJ	16ff#\JJ
8A\	.	.	.	.	.	.	.	.	.	8dd\L	8ff#\L
8F#\J	.	.	.	.	.	.	.	.	.	8dd\J	8ff#\J
=111	=111	=111	=111	=111	=111	=111	=111	=111	=111	=111	=111
!	!	!	!	!	!	!	!	!	!	!LO:TX:a:t=4	!LO:TX:a:t=4
*tremolo	*	*	*	*	*	*	*	*	*	*	*
8D\L	8d/L	.	8d/L	4D/	et	4f#\	et	4a\	et	0.r	0.r
8D\	16e/L	.	16e/L	.	.	.	.	.	.	.	.
.	16f#/JJ	.	16f#/JJ	.	.	.	.	.	.	.	.
8D\	16g/LL	.	16g/LL	2D/	Spi-	2f#\	Spi-	2a\	spi-	.	.
.	16a/	.	16a/	.	.	.	.	.	.	.	.
8D\	16b/	.	16b/	.	.	.	.	.	.	.	.
.	16cc#/JJ	.	16cc#/JJ	.	.	.	.	.	.	.	.
!	!LO:TX:a:t=P:problem=mixed beam	!	!	!	!	!	!	!	!	!	!
8D\	8dd\L	.	8dd/L	.	.	.	.	.	.	.	.
8D\J	8f#/J	.	8a/J	.	.	.	.	.	.	.	.
=112	=112	=112	=112	=112	=112	=112	=112	=112	=112	=112	=112
8D\L	8g/L	.	8b/L	8d\	-ri-	8g\	-ri-	8b\	-ri-	.	.
8D\	8e/J	.	8g/J	8d\	-tu-	8e\	-tu-	8g\	-tu-	.	.
.	8qqe/	.	8qqg/	.	.	8qqe/	.	8qqg/	.	.	.
8D\	2f#/	.	2a/	2d\	-i	2f#\	-i	2a\	-i	.	.
8D\	.	.	.	.	.	.	.	.	.	.	.
8D\	.	.	.	.	.	.	.	.	.	.	.
8D\J	.	.	.	.	.	.	.	.	.	.	.
=113	=113	=113	=113	=113	=113	=113	=113	=113	=113	=113	=113
8D\L	8d/L	.	8d/L	8d\	Spi-	4f#\	Spi-	4a\	Spi-	.	.
8D\	16e/L	.	16e/L	4d\	-ri-	.	.	.	.	.	.
.	16f#/JJ	.	16f#/JJ	.	.	.	.	.	.	.	.
8D\	16g/LL	.	16g/LL	.	.	4f#\	-ri-	4a\	-ri-	.	.
.	16a/	.	16a/	.	.	.	.	.	.	.	.
8D\	16b/	.	16b/	8d\	-tu-	.	.	.	.	.	.
.	16cc#/JJ	.	16cc#/JJ	.	.	.	.	.	.	.	.
!	!LO:TX:a:t=P:problem=mixed beam	!	!	!	!	!	!	!	!	!	!
8D\	8dd\L	.	8dd/L	4D/	-i	8f#\	-tu-	8a\	-tu-	.	.
8D\J	8f#/J	.	8a/J	.	.	8f#\	-i	8a\	-i	.	.
*Xtremolo	*	*	*	*	*	*	*	*	*	*	*
=114	=114	=114	=114	=114	=114	=114	=114	=114	=114	=114	=114
8AA/L	8e/L	.	8g/L	4A\	San-	8e\L	San-	8g/L	San-	.	.
8AA/	8c#/J	.	8e/J	.	.	8c#\J	.	8e/J	.	.	.
!	!	!	!	!	!	!	!	!LO:LB:g=original	!	!	!
.	8qqc#/	.	8qqe/	.	.	8qqc#/	.	8qqe/	.	.	.
8AA/	2d/	.	2f#/	2D\	-cto	2d\	-cto	2f#/	-cto	.	.
8AA/	.	.	.	.	.	.	.	.	.	.	.
8D/	.	.	.	.	.	.	.	.	.	.	.
8D/J	.	.	.	.	.	.	.	.	.	.	.
!	!	!	!LO:LB:g=original	!	!	!LO:LB:g=original	!	!	!	!	!
=115	=115	=115	=115	=115	=115	=115	=115	=115	=115	=115	=115
*tremolo	*	*	*	*	*	*	*	*	*	*	*
8D\L	16d/LL	.	16d/LL	4.D\	Si-	4.A\	Si-	4.ff#\	Si-	4dd\	4ff#\
.	16d/	.	16d/	.	.	.	.	.	.	.	.
8D\	16d/	.	16d/	.	.	.	.	.	.	.	.
.	16d/JJ	.	16d/JJ	.	.	.	.	.	.	.	.
8D\	16e/LL	.	16f#/LL	.	.	.	.	.	.	8dd\L	8ff#\L
.	16e/	.	16f#/	.	.	.	.	.	.	.	.
!	!	!	!	!	!	!	!	!LO:SIC:o=16ff# (?)	!	!	!
8D\	16A/	.	16d/	8D\	-cut	8A\	-cut	8ff#\	-cut	8dd\	8ff#\
.	16A/JJ	.	16d/JJ	.	.	.	.	.	.	.	.
8D\	16a/LL	.	16a/LL	8D\	e-	8A\	e-	8ff#\	e-	8dd\	8ff#\
.	16a/	.	16a/	.	.	.	.	.	.	.	.
8D\J	16d/	.	16f#/	8D\	-rat	8A\	-rat	8ff#\	-rat	8dd\J	8ff#\J
.	16d/JJ	.	16f#/JJ	.	.	.	.	.	.	.	.
!	!	!	!	!LO:LB:g=original	!	!	!	!	!	!	!
=116	=116	=116	=116	=116	=116	=116	=116	=116	=116	=116	=116
*	*	*	*	*	*	*	*	*	*	*	*tremolo
8D\L	16dd\LL	.	16ff#\LL	8D\	in	8A\	in	8ff#\	in	8dd\L	8ff#\L
.	16dd\	.	16ff#\	.	.	.	.	.	.	.	.
8D\	16a\	.	16dd\	8D\	prin-	8A\	prin-	8ff#\	prin-	8dd\	8ff#\
.	16a\JJ	.	16dd\JJ	.	.	.	.	.	.	.	.
8D\	16dd\LL	.	16ff#\LL	4D\	-ci-	4A\	-ci-	4ff#\	-ci-	8dd\	8ff#\
.	16dd\	.	16ff#\	.	.	.	.	.	.	.	.
8D\	16ff#\	.	16aa\	.	.	.	.	.	.	8dd\	8ff#\
.	16ff#\JJ	.	16aa\JJ	.	.	.	.	.	.	.	.
8D\	16dd\LL	.	16ff#\LL	8D\	-pi-	8A\	-pi-	8ff#\	-pi-	8dd\	8ff#\
.	16dd\	.	16ff#\	.	.	.	.	.	.	.	.
8D\J	16a\	.	16dd\	8D\	-o	8A\	-o	8ff#\	-o	8dd\J	8ff#\J
.	16a\JJ	.	16dd\JJ	.	.	.	.	.	.	.	.
*	*tremolo	*	*	*	*	*	*	*	*	*	*Xtremolo
!	!	!	!	!	!	!	!	!	!	!LO:LB:g=original	!
=117	=117	=117	=117	=117	=117	=117	=117	=117	=117	=117	=117
8D\L	16B/LL	.	16d/LL	4d\	et	4B\	et	4gg\	et	4dd\	4gg\
.	16B/	.	16d/	.	.	.	.	.	.	.	.
8D\	16B/	.	16d/	.	.	.	.	.	.	.	.
.	16B/JJ	.	16d/JJ	.	.	.	.	.	.	.	.
*	*Xtremolo	*	*	*	*	*	*	*	*	*	*
!	!	!	!	!	!LO:MO:mod=nunc	!	!LO:MO:mod=nunc	!	!LO:MO:mod=nunc	!	!
8D\	16e/LL	.	16g/LL	4D/	nuc	4B\	nuc	4gg\	nuc	8r	8r
.	16e/	.	16g/	.	.	.	.	.	.	.	.
8D\	16B/	.	16d/	.	.	.	.	.	.	8dd\L	8gg\L
.	16B/JJ	.	16d/JJ	.	.	.	.	.	.	.	.
8D\	16g/LL	.	16b/LL	4d\	et	4B\	et	4gg\	et	8dd\	8ff#\
.	16g/	.	16b/	.	.	.	.	.	.	.	.
8D\J	16d/	.	16g/	.	.	.	.	.	.	8dd\J	8ff#\J
.	16d/JJ	.	16g/JJ	.	.	.	.	.	.	.	.
=118	=118	=118	=118	=118	=118	=118	=118	=118	=118	=118	=118
*	*	*	*	*	*	*	*	*	*	*	*tremolo
8D\L	16b/LL	.	16dd\LL	2D/	Sem-	2B\	Sem-	2gg\	Sem-	8dd\L	8gg\L
.	16b/	.	16dd\	.	.	.	.	.	.	.	.
8D\	16g/	.	16b\	.	.	.	.	.	.	8dd\	8gg\
.	16g/JJ	.	16b\JJ	.	.	.	.	.	.	.	.
!	!LO:LB:g=original	!	!	!	!	!	!	!	!	!	!
8D\	16dd\LL	.	16gg\LL	.	.	.	.	.	.	8dd\	8gg\
.	16dd\	.	16gg\	.	.	.	.	.	.	.	.
8D\	16gg\	.	16bb\	.	.	.	.	.	.	8dd\	8gg\
.	16gg\JJ	.	16bb\JJ	.	.	.	.	.	.	.	.
8D\	16dd\LL	.	16gg\LL	4D/	-per	4B\	-per	4gg\	-per	8dd\	8gg\
.	16dd\	.	16gg\	.	.	.	.	.	.	.	.
8D\J	16b\	.	16dd\	.	.	.	.	.	.	8dd\J	8gg\J
.	16b\JJ	.	16dd\JJ	.	.	.	.	.	.	.	.
*	*	*	*	*	*	*	*	*	*	*	*Xtremolo
=119	=119	=119	=119	=119	=119	=119	=119	=119	=119	=119	=119
8D\L	16A/LL	.	16d/LL	2D/	et	2A/	et	2ff#\	et	4dd\	4ff#\
.	16A/	.	16d/	.	.	.	.	.	.	.	.
8D\	16A/	.	16d/	.	.	.	.	.	.	.	.
.	16A/JJ	.	16d/JJ	.	.	.	.	.	.	.	.
8D\	16d/LL	.	16f#/LL	.	.	.	.	.	.	8r	8r
.	16d/	.	16f#/	.	.	.	.	.	.	.	.
8D\	16A/	.	16d/	.	.	.	.	.	.	8dd\L	8ff#\L
.	16A/JJ	.	16d/JJ	.	.	.	.	.	.	.	.
8D\	16f#/LL	.	16a/LL	4D/	in	4A/	in	4ff#\	in	8dd\	8ff#\
.	16f#/	.	16a/	.	.	.	.	.	.	.	.
8D\J	16d/	.	16f#/	.	.	.	.	.	.	8dd\J	8ff#\J
.	16d/JJ	.	16f#/JJ	.	.	.	.	.	.	.	.
*Xtremolo	*	*	*	*	*	*	*	*	*	*	*
=120	=120	=120	=120	=120	=120	=120	=120	=120	=120	=120	=120
!LO:TX:a:t=P:problem=mixed beam	!	!	!	!	!LO:MO:mod=sae	!	!LO:MO:mod=sae	!	!LO:MO:mod=sae	!	!
8D\L	16a/LL	.	16dd\LL	4D/	Se-	4d\	Se-	4ff#\	Se-	8dd\L	8ff#\L
.	16a/	.	16dd\	.	.	.	.	.	.	.	.
8D\	16f#/	.	16a\	.	.	.	.	.	.	8dd\	8ff#\
.	16f#/JJ	.	16a\JJ	.	.	.	.	.	.	.	.
8D\	16dd\LL	.	16ff#\LL	8D/	-cu-	8d\	-cu-	8ff#\	-cu-	8dd\	8ff#\
.	16dd\	.	16ff#\	.	.	.	.	.	.	.	.
8D\	16ff#\	.	16aa\	8D/	-la	8d\	-la	8ff#\	-la	8dd\J	8ff#\
.	16ff#\JJ	.	16aa\JJ	.	.	.	.	.	.	.	.
!	!	!	!LO:LB:g=original	!	!	!	!	!	!	!	!
!	!LO:TX:a:t=P:problem=mixed beam	!	!LO:TX:a:t=P:problem=mixed beam	!	!LO:MO:mod=sae	!	!LO:MO:mod=sae	!	!LO:MO:mod=sae	!	!
8A\	16f#/LL	.	16a/LL	8A\	Se-	8c#\	Se-	8ee\	Se-	8a\L	8ee\
.	16f#/	.	16a/	.	.	.	.	.	.	.	.
8AA/J	16ee\	.	16gg\	8A\	-cu-	8e\	-cu-	8gg\	-cu-	8ee\J	8gg\J
.	16ee\JJ	.	16gg\JJ	.	.	.	.	.	.	.	.
=121	=121	=121	=121	=121	=121	=121	=121	=121	=121	=121	=121
!LO:TX:a:t=P:problem=mixed beam	!	!	!	!	!	!	!	!	!	!	!
8D\L	16dd\LL	.	16ff#\LL	8D\	-lo-	8d\	-lo-	8ff#\	-lo-	4dd\	4ff#\
.	16dd\	.	16ff#\	.	.	.	.	.	.	.	.
8F#\	16a\	.	16dd\	8F#\	-rum	8f#\	-rum	8dd\	-rum	.	.
.	16a\JJ	.	16dd\JJ	.	.	.	.	.	.	.	.
8A\	16f#/LL	.	16f#/LL	4A\	a-	4f#\	a-	(4dd\	a-	8dd\L	8ff#\L
.	16f#/	.	16f#/	.	.	.	.	.	.	.	.
8G\	16f#/	.	16dd/	.	.	.	.	.	.	8dd\	8ff#\
.	16f#/JJ	.	16dd/JJ	.	.	.	.	.	.	.	.
8A\	16e/LL	.	16e/LL	4AA/	.	4e\	.	4cc#\)	.	8a\	8ee\
.	16e/	.	16e/	.	.	.	.	.	.	.	.
8AA/J	16e/	.	16cc#/	.	.	.	.	.	.	8a\J	8ee\J
.	16e/JJ	.	16cc#/JJ	.	.	.	.	.	.	.	.
=122	=122	=122	=122	=122	=122	=122	=122	=122	=122	=122	=122
*	*	*	*^	*	*	*	*	*	*	*	*
4D\	4f#/	.	4dd/	2ryy	4D\	-men	4f#\	-men	4dd\	-men	8dd\L	4aa\
.	.	.	.	.	.	.	.	.	.	.	8dd\	.
4A\	4dd\	.	4d/ 4a 4ff#	.	4A\	a-	4d\	a-	4ff#\	a-	8dd\	8aa\L
.	.	.	.	.	.	.	.	.	.	.	8dd\J	8aa\
4AA/	4cc#\	.	4cc#/ 4ee	4a\	4AA/	.	4c#\	.	4ee\	.	8a/L	8gg\
.	.	.	.	.	.	.	.	.	.	.	8a/J	8gg\J
*	*	*	*v	*v	*	*	*	*	*	*	*	*
=123	=123	=123	=123	=123	=123	=123	=123	=123	=123	=123	=123
4D\	4d/ 4a 4ff#	.	4d/ 4a 4ff#	4D\	-men	4d\	-men	4ff#\	-men	4dd\	4ff#\
4r	4r	.	4r	4r	.	4r	.	4r	.	4r	4r
!LO:TX:a:t=P:problem=podwójna kreska	!LO:TX:a:t=P:problem=podwójna kreska	!	!LO:TX:a:t=P:problem=podwójna kreska	!LO:TX:a:t=P:problem=podwójna kreska	!	!LO:TX:a:t=P:problem=podwójna kreska	!	!LO:TX:a:t=P:problem=podwójna kreska	!	!LO:TX:a:t=P:problem=podwójna kreska	!LO:TX:a:t=P:problem=podwójna kreska
4r	4r	.	4r	4r	.	4r	.	4r	.	4r	4r
==	==	==	==	==	==	==	==	==	==	==	==
*-	*-	*-	*-	*-	*-	*-	*-	*-	*-	*-	*-
!!!system-decoration: [(g1)][(g2)][(g3)]g4
!!!ENC: Anna Matuszewska
!!!END: 2020-10-20
!!!ENC: Kamil Watkowski
!!!END: 2020-05-22
!!!YEC: Copyright 2022 Narodowy Instytut Fryderyka Chopina (https://polishscores.org)
!!!YEM: License CC-BY-4.0 (https://creativecommons.org/licenses/by/4.0)
